anita-tcj/Strategy/NQ.csv
Date,y,a1,a2,b1,b2,b3,b4,b5,b6,b7,b8,b9,b10,b11,c1,c2,c3,c4,c5,c6,c7,c8,c9,c10,c11,d1,d2,d3,d4,d5,d6,d7,d8,d9,d10,d11,e1,e2,e3,e4,e5,e6,e7,e8,e9,e10,e11,f1,f2,f3,f4,f5,f6,f7,f8,f9,f10,f11,g1,g2,g3,g4,g5,g6,g7,g8,g9,g10,g11,h1,h2,h3,h4,h5,h6,h7,h8,h9,h10,h11,i1,i2,i3,i4,i5,i6,i7,i8,i9,i10,i11,j1,j2,j3,j4,j5,j6,j7,j8,j9,j10,j11,k1,k2,k3,k4,k5,k6,k7,k8,k9,k10,k11,l1,l2,l3,l4,l5,l6,l7,l8,l9,l10,l11,m1,m2,m3,m4,m5,m6,m7,m8,m9,m10,m11,n1,n2,n3,n4,n5,n6,n7,n8,n9,n10,n11,o1,o2,o3,o4,o5,o6,o7,o8,o9,o10,o11,p1,p2,p3,p4,p5,p6,p7,p8,p9,p10,p11
1/9/2020,0.000555448,0.675008795,0.67,2.029209853,1.61,1.354201059,0.94,2.4,18.7,80.56,0.234,43.17,6.05,14.18,0.258591925,0.19,-0.416416869,-0.48,1.62,-13.15,67.25,-0.086,25.68,3.35,11.92,3.892653578,4.92,3.217644784,4.25,6.15,71.34,88.63,0.354,50.43,19.92,41,0.879259813,0.79,0.204251018,0.12,1.48,1.16,73.44,0.157,36.06,3.41,7.04,2.34396211,2.57,1.668953316,1.9,3.43,49.9,65.95,0.25,32.59,5.44,11.96,-0.319803587,-0.78,-0.994812381,-1.45,1.3,-15.05,66.17,0.455,29.72,3.89,5.85,1.042253521,1.01,0.367244726,0.34,1.69,-10.71,73.86,0.714,27.97,4.95,9.03,0.135846493,0.07,-0.539162301,-0.6,1.36,5.36,49.9,-0.05,30.04,0.39,3.3,-0.041797283,-0.87,-0.716806078,-1.54,2.43,-10.12,68.68,0.14,43.15,6.83,22.66,0.72988108,1.59,0.054872285,0.92,1.78,26.87,65.34,-0.11,32.74,2.23,7.18,2.308745842,2.25,1.633737048,1.58,2.68,64.68,68.8,-0.084,25.45,3.52,9.91,0.297294018,0.31,-0.377714777,-0.36,0.79,16.86,56.94,-0.336,21.88,0.16,3.23,0.467579117,0.53,-0.207429678,-0.14,0.96,68.5,66.18,-0.146,30.91,1.2,4.12,0.152963671,0.27,-0.522045124,-0.4,0.25,372.46,41.52,-0.015,29.06,-0.7,-1.68,-1.354719151,-1.25,-2.029727946,-1.92,1.65,72.17,38.37,-1.579,13.25,-3.08,-0.02
1/10/2020,-0.006665192,0.012605585,0.81,0.779467978,2.12,0.766862392,1.31,1.37,26.23,84.6,0.31,44.25,7.53,16.07,-0.34037318,1.1,-0.352978766,0.29,2.09,-9.71,70.72,-0.046,25.9,3.84,12.65,-3.170488835,-2.19,-3.183094421,-3,5.39,-9.71,79.51,0.364,51.7,15.43,36.44,-0.052091766,1.1,-0.064697351,0.29,1.2,-4.1,77.13,0.238,37.82,4.26,7.95,-1.85380117,-1.06,-1.866406755,-1.87,2.62,-35.82,61.16,0.302,33.63,3.64,10.46,-0.462853882,0.48,-0.475459467,-0.33,1.16,-10.51,68.01,0.406,31.12,3.93,6.2,0.349361037,1.43,0.336755452,0.62,0.96,-9.69,77.69,0.935,29.74,6,10.26,0.423370025,0.56,0.41076444,-0.25,1.15,-24.35,53.64,-0.086,29.03,0.72,3.65,0.06129955,2.38,0.048693965,1.57,3.21,40.57,73.27,0.126,43.9,8.23,24.6,0.157567893,1.25,0.144962308,0.44,0.73,-26.21,70.76,0.025,33.28,3.15,8.25,-0.72065238,0.11,-0.733257965,-0.7,1.58,-23.39,69.19,-0.003,25.69,3.33,9.64,-0.367204431,0.12,-0.379810016,-0.69,0.72,-13.88,58.83,-0.303,21.45,0.2,3.19,0.153303695,0.68,0.140698109,-0.13,0.37,-28.98,71.57,-0.014,31.37,1.68,4.66,0,0.19,-0.012605585,-0.62,0.15,-75.64,45.48,0.002,27.67,-0.42,-1.45,-1.940317623,-0.8,-1.952923208,-1.61,3.25,28.33,35.54,-1.813,13.51,-3.73,-0.95
1/13/2020,0.007542147,-0.585728923,-0.27,-0.086928525,0.23,0.498800397,0.5,1.42,-15.69,84.98,0.344,45.44,7.04,15.79,-1.216997534,0.53,-0.631268611,0.8,1.96,26.42,72.32,-0.001,26.46,3.8,12.84,-0.755309113,-0.66,-0.16958019,-0.39,2.35,-53.93,76.92,0.314,52.88,12.96,34.14,0.152007621,0.7,0.737736544,0.97,1.16,24.22,79.18,0.298,39.62,4.67,8.44,-2.396701569,-1.97,-1.810972646,-1.7,3.41,3.46,53.26,-0.158,33.09,1.13,8.02,-1.165652865,-0.94,-0.579923943,-0.67,1.43,-9.09,60.77,0.292,31.61,2.57,5.09,-0.520072993,-0.11,0.06565593,0.16,1.13,-0.47,76.71,1.029,31.59,5.48,9.87,-1.057579318,-0.61,-0.471850396,-0.34,2.04,-13.15,49.19,-0.112,28.64,-0.05,2.83,-2.222898904,-1.64,-1.637169981,-1.37,2.68,-41.61,65.71,0.048,44.18,5.44,21.65,-0.911109269,-0.46,-0.325380346,-0.19,1.26,1.21,66.43,0.079,34.09,2.35,7.51,-1.066057491,-0.73,-0.480328568,-0.46,1.29,-21.52,63.65,0.021,25.67,2.27,8.51,-0.398671096,-0.37,0.187057826,-0.1,0.9,29.08,51.11,-0.329,19.97,-0.25,2.66,-0.482721893,-0.29,0.10300703,-0.02,0.69,9.51,66.54,0.018,32.01,1.21,4.21,-0.152322925,-0.08,0.433405998,0.19,0.21,26.78,44.15,0.013,26.58,-0.42,-1.49,-2.039613685,-2.3,-1.453884762,-2.03,2.26,-1.09,28.82,-2.286,14.27,-5.64,-3.27
1/14/2020,-0.002971196,0.653481981,1.04,1.707097934,2.14,1.053615952,1.1,1.87,-14.73,88.06,0.409,46.86,8.48,17.66,1.7443269,3.14,1.090844919,2.1,2.48,-2.18,79.62,0.102,27.5,6.42,15.86,6.354711246,9.77,5.701229265,8.73,6.41,102.73,84.92,0.41,54.59,21.62,45.44,0.215857896,0.66,-0.437624085,-0.38,1.01,-24.34,80.99,0.338,41.4,5.02,8.9,2.145871007,3,1.492389025,1.96,2.76,31.69,61.51,-0.088,32.84,3.52,10.94,-0.000528734,0.43,-0.654010715,-0.61,0.91,-3.61,62.77,0.199,32.07,2.65,5.43,1.053523166,1.77,0.400041185,0.73,1.24,17.88,80.97,1.186,33.57,6.69,11.51,0.818867797,1.1,0.165385816,0.06,1.17,7.53,56.44,-0.11,28.27,0.87,3.75,0.174681463,1.2,-0.478800518,0.16,1.27,-23.68,68.33,-0.01,44.44,5.99,22.2,0.939663699,1.2,0.286181718,0.16,1.26,-9.97,71.45,0.151,34.87,3.26,8.53,0.970873786,2.06,0.317391805,1.02,1.53,51.71,70.93,0.078,26.15,4.01,10.36,0.618406693,0.65,-0.035075288,-0.39,1.19,12.47,60.94,-0.302,18.91,0.34,3.17,0.47795582,0.69,-0.175526161,-0.35,0.62,-11.32,71.79,0.1,32.75,1.73,4.76,-0.114285714,0,-0.767767696,-1.04,0.17,2.48,44.15,0.02,25.57,-0.33,-1.45,0.386640891,0.66,-0.266841091,-0.38,1.37,-51.36,32.75,-2.42,14.98,-4.62,-2.71
1/15/2020,0.001105308,-0.207969055,-0.24,-1.269340069,-1.35,-1.061371015,-1.11,1.73,35.38,76.77,0.378,48.21,6.33,15.52,-1.190761608,-1.87,-0.982792553,-1.63,1.83,16.16,67.48,0.101,28.47,3.92,13.24,-1.164159113,2.49,-0.956190058,2.73,4.18,10.47,86.39,0.518,56.4,22.11,47.19,-0.564971751,-0.58,-0.357002697,-0.34,0.94,13.22,74.64,0.326,43.09,4.09,8.02,-1.657955865,-0.07,-1.44998681,0.17,2.91,15.84,61.23,0.02,33.05,2.81,10.59,-0.871741574,-1.16,-0.663772519,-0.92,1.53,25.15,54.47,0.055,31.41,1.17,4.13,-1.150670096,-1.28,-0.942701041,-1.04,1.71,-6.86,70.39,1.093,35.14,4.7,9.81,-0.100857287,-0.27,0.107111768,-0.03,0.93,4.56,54.32,-0.112,27.93,0.46,3.24,-0.884046053,-1.1,-0.676076998,-0.86,2.33,14.67,63.37,-0.086,44.3,4.03,20,-0.771161026,-0.7,-0.563191971,-0.46,1.16,25.9,65.04,0.139,35.68,2.28,7.49,0.150432493,0.41,0.358401548,0.65,2.15,1.81,72.2,0.123,27.04,4.01,10.42,0.865931937,0.37,1.073900991,0.61,1.57,6.08,65.35,-0.222,19.11,0.61,3.41,-0.00610743,-0.15,0.201861625,0.09,0.54,33.51,69.1,0.126,33.63,1.42,4.44,-0.152264941,0.04,0.055704114,0.28,0.23,171.8,45.14,0.026,24.44,-0.21,-1.39,2.046357616,2.32,2.254326671,2.56,2.45,46.02,44.84,-2.038,14.63,-2.29,-0.55
1/16/2020,0.004591192,0.053383706,0.08,-0.163540164,-0.43,-0.216923869,-0.51,1.91,-25.02,73.5,0.288,48.62,5.31,14.49,-0.895919932,-0.69,-0.949303638,-0.77,1.69,-26.83,63.57,0.047,28.76,2.76,11.98,-2.125304029,-3.61,-2.178687735,-3.69,4.06,-40.23,74.43,0.478,57.42,15.9,40.2,0.62857902,0.58,0.575195314,0.5,0.78,-17.8,76.66,0.306,44.66,4.4,8.39,0.115152947,0.11,0.061769241,0.03,1.94,-28.38,61.55,0.01,33.25,2.39,10.34,-0.546401389,-0.4,-0.599785094,-0.48,1.28,-15.95,51.88,-0.072,30.64,0.51,3.62,0.244775849,0.95,0.191392143,0.87,0.7,-24.62,73.24,1.018,36.59,5.11,10.54,-0.607082631,-0.82,-0.660466336,-0.9,1.53,8.23,48.16,-0.138,26.91,-0.47,2.17,0.653120464,0.69,0.599736759,0.61,1.98,3.89,65.13,-0.136,44.2,4.06,19.96,0.344361087,0.65,0.290977382,0.57,0.84,-8.86,67.96,0.154,36.54,2.7,7.88,0.432330827,0.32,0.378947121,0.24,1.66,-4.67,73.21,0.157,28.1,4.02,10.33,0.734276256,0.48,0.680892551,0.4,1.08,-15.88,70.24,-0.122,19.53,0.99,3.75,0.256606079,0.23,0.203222373,0.15,0.54,14.47,70.89,0.144,34.56,1.51,4.51,0.038197097,-0.15,-0.015186609,-0.23,0.13,-58.9,41.84,0.026,23.71,-0.29,-1.52,-1.356935993,-1.64,-1.410319699,-1.72,2.37,-21.38,39.2,-1.882,14.44,-3.58,-2.26
1/17/2020,2.72E-05,0.468999136,1.06,0.526164737,1.25,0.057165602,0.19,1.15,-10.74,76.71,0.235,49.01,6,15.4,0.488454707,1.37,0.019455571,0.31,0.96,8.01,67.66,0.031,29.09,3.72,13.06,3.997970635,-0.97,3.528971499,-2.03,4.34,25.15,71.59,0.346,56.62,13.08,37.24,0.294312718,0.87,-0.174686418,-0.19,0.76,-8.5,79.41,0.305,46.35,4.94,9.05,-1.420669578,-0.13,-1.889668714,-1.19,2.28,-2.75,60.89,-0.086,33.27,1.9,9.83,-0.268190484,0.85,-0.73718962,-0.21,1.04,-8.19,56.78,-0.122,30.13,1.13,4.41,-0.35943748,0.28,-0.828436616,-0.78,1.01,-0.21,74.06,0.917,38.08,4.82,10.55,0.674991563,1.22,0.205992427,0.16,1.29,15.5,56.26,-0.121,26.18,0.55,3.19,1.220256254,2.52,0.751257118,1.46,2.65,46.51,70.82,-0.108,44.65,5.89,22.09,1.107392759,1.83,0.638393624,0.77,1.33,11.43,74.65,0.286,37.98,4.2,9.53,0.671015843,1.09,0.202016708,0.03,1.28,-20.99,76.45,0.183,29.09,4.76,11.08,0.557565692,1.29,0.088566556,0.23,0.85,29.42,79.1,0.072,20.96,2.14,4.92,0.370033364,0.83,-0.098965772,-0.23,0.44,-25.16,76.49,0.271,35.92,2.18,5.21,0.15273005,0.15,-0.316269086,-0.91,0.19,-55.2,46.21,0.028,22.77,-0.05,-1.35,0.672131148,1.29,0.203132012,0.23,1.19,-5.39,45.15,-1.497,14.26,-2.08,-1.09
1/21/2020,0.003308994,#N/A,#N/A,#N/A,#N/A,#N/A,#N/A,#N/A,#N/A,#N/A,#N/A,#N/A,#N/A,#N/A,#N/A,#N/A,#N/A,#N/A,#N/A,#N/A,#N/A,#N/A,#N/A,#N/A,#N/A,#N/A,#N/A,#N/A,#N/A,#N/A,#N/A,#N/A,#N/A,#N/A,#N/A,#N/A,#N/A,#N/A,#N/A,#N/A,#N/A,#N/A,#N/A,#N/A,#N/A,#N/A,#N/A,#N/A,#N/A,#N/A,#N/A,#N/A,#N/A,#N/A,#N/A,#N/A,#N/A,#N/A,#N/A,#N/A,#N/A,#N/A,#N/A,#N/A,#N/A,#N/A,#N/A,#N/A,#N/A,#N/A,#N/A,#N/A,#N/A,#N/A,#N/A,#N/A,#N/A,#N/A,#N/A,#N/A,#N/A,#N/A,#N/A,#N/A,#N/A,#N/A,#N/A,#N/A,#N/A,#N/A,#N/A,#N/A,#N/A,#N/A,#N/A,#N/A,#N/A,#N/A,#N/A,#N/A,#N/A,#N/A,#N/A,#N/A,#N/A,#N/A,#N/A,#N/A,#N/A,#N/A,#N/A,#N/A,#N/A,#N/A,#N/A,#N/A,#N/A,#N/A,#N/A,#N/A,#N/A,#N/A,#N/A,#N/A,#N/A,#N/A,#N/A,#N/A,#N/A,#N/A,#N/A,#N/A,#N/A,#N/A,#N/A,#N/A,#N/A,#N/A,#N/A,#N/A,#N/A,#N/A,#N/A,#N/A,#N/A,#N/A,#N/A,#N/A,#N/A,#N/A,#N/A,#N/A,#N/A,#N/A,#N/A,#N/A,#N/A,#N/A,#N/A,#N/A,#N/A,#N/A,#N/A,#N/A,#N/A,#N/A,#N/A,#N/A
1/22/2020,-0.002791025,0.104047935,-0.19,-0.19546644,-0.68,-0.299514374,-0.49,0.95,-20.95,73.76,0.16,50.3,5.12,14.82,0.054397567,-0.54,-0.049650368,-0.35,1.1,-16.13,64.55,-0.033,29.67,2.62,11.71,3.196605375,7.19,3.09255744,7.38,3.69,28.02,77.42,0.263,55.94,17.14,42.77,0.356969009,0.27,0.252921074,0.46,1.39,-16.17,84.71,0.39,50.46,6.32,10.86,-0.555882353,-0.46,-0.659930288,-0.27,2.49,109.43,59.29,-0.443,32.25,1.36,8.84,1.44772118,1.46,1.343673245,1.65,1.81,-8.85,59.81,-0.178,28.65,1.4,4.97,-0.321847359,-0.32,-0.425895294,-0.13,1.47,-10.96,71.58,0.551,39.95,3.81,9.7,1.237251296,1.59,1.133203361,1.78,2.41,29.86,64.38,-0.037,26.46,1.62,4.24,0.176609105,0.24,0.07256117,0.43,2.17,-16.15,75.51,0.01,46.26,6.7,23.26,-0.107991361,-0.36,-0.212039295,-0.17,1.06,-14.98,72.84,0.434,41.26,3.65,9.02,-0.390334572,-0.15,-0.494382507,0.04,1.12,6.76,69.55,0.148,30.95,3.36,9.34,-0.405162751,-0.83,-0.509210686,-0.64,1.03,-4.5,60.45,0.133,22.74,0.84,3.46,0.120882442,-0.2,0.016834507,-0.01,0.41,-18.95,74.35,0.379,38.86,1.94,4.97,0.152322925,-0.08,0.04827499,0.11,0.19,15.05,52.66,0.038,19.91,0.37,-1.05,0.087719298,-0.23,-0.016328636,-0.04,1.03,-19.28,46.69,-0.748,13.39,-1.21,-1.02
1/23/2020,0.006719808,-0.316987851,0.14,-0.276225752,0.36,0.040762099,0.22,0.84,-6.52,74.77,0.109,50.98,4.83,14.72,0.116111467,0.85,0.433099318,0.71,1.84,12.4,67.5,-0.032,30.44,3.27,12.21,-0.407333578,4.09,-0.090345728,3.95,6.22,79.79,80.71,0.377,56.63,19.83,46.88,-0.33869886,0.1,-0.021711009,-0.04,1.23,-19.81,84.94,0.398,52.5,5.92,10.67,-1.969628627,-3.58,-1.652640777,-3.72,3.9,71.03,43.27,-1.254,30.15,-2.11,4.64,-0.455147171,-0.24,-0.138159321,-0.38,1.02,-11.73,58.05,-0.158,28.38,0.88,4.62,-0.445324097,-0.05,-0.128336246,-0.19,0.66,-13.76,71.03,0.376,40.48,3.39,9.33,2.768676278,3.6,3.085664128,3.46,3,4.1,76.43,0.117,28.2,4.94,7.66,-0.387371683,0.74,-0.070383833,0.6,1.32,-15.77,76.86,0.042,47.13,6.68,23.2,-1.015531661,-0.48,-0.69854381,-0.62,1.09,-17.4,68.19,0.357,42.14,2.88,8.2,-0.462192642,0.47,-0.145204791,0.33,1.21,-0.69,71.4,0.133,32.01,3.55,9.43,-0.374576372,-0.07,-0.057588521,-0.21,0.86,-14.78,59.5,0.075,22.8,0.72,3.25,-0.270888514,0.01,0.046099336,-0.13,0.54,-37.26,74.44,0.345,40.33,1.78,4.81,0.038066235,-0.08,0.355054086,-0.22,0.23,-33.83,50.55,0.038,18.54,0.39,-1.09,0.669240669,1.56,0.98622852,1.42,2.37,34.79,53.81,-0.122,13.41,0.44,0.36
1/24/2020,-0.013128454,0.264030063,0.2,0.412053347,0.48,0.148023284,0.28,1.22,2.59,76.15,0.05,50.99,4.72,14.77,0.452884157,1.12,0.188854094,0.92,2,2.21,71.06,-0.028,30.89,4.12,13.06,1.408948685,0.46,1.144918622,0.26,4.61,-37.36,81.07,0.394,57.07,18.48,46.02,-0.066548358,0.05,-0.330578421,-0.15,0.9,-16.11,85.05,0.362,54.11,5.45,10.41,7.226107226,7.24,6.962077163,7.04,7.11,-16.24,64.21,-0.77,29.47,4.72,11.78,-0.02811507,-0.15,-0.292145133,-0.35,0.91,-22.75,56.87,-0.171,27.57,0.48,4.34,-0.448471121,-0.7,-0.712501184,-0.9,1.01,-8.33,63.99,0.098,39.89,2.34,8.27,0.731784919,0.94,0.467754856,0.74,1.41,45.14,78.61,0.265,30.22,5.57,8.46,0.720685625,0.54,0.456655562,0.34,1.94,-1.56,77.86,0.039,47.34,6.57,22.94,0.318912089,0.62,0.054882026,0.42,0.92,-18.47,70.83,0.278,42.6,3.22,8.56,0.055793193,-0.07,-0.20823687,-0.27,1.71,-25.57,70.64,0.088,31.71,3.26,8.97,0.209455416,-0.07,-0.054574647,-0.27,1.5,6.94,58.48,-0.019,21.46,0.62,3.06,0.329673653,0.11,0.065643591,-0.09,0.83,6.41,75.32,0.245,40.31,1.74,4.76,0.075958982,0.27,-0.188071081,0.07,0.21,-41.6,57.22,0.041,17.56,0.64,-0.81,1.418237198,2.16,1.154207135,1.96,2.81,3.43,61.79,0.545,13.7,2.61,2.37
1/27/2020,-0.002339377,-1.389871059,-0.93,-0.605776737,-0.29,0.784094322,0.64,1.83,40.26,73.46,0.002,51.41,3.84,13.96,-2.726213592,-0.94,-1.336342533,-0.01,4.47,52.76,64.42,-0.034,32.1,2.89,11.64,-1.018085274,-1.29,0.371785785,-0.36,3.47,-26.96,76.61,0.334,57.4,15.28,42.7,-1.799690678,-1.34,-0.409819619,-0.41,2.06,32.06,69.09,0.261,54.08,3.58,8.7,1.348791827,1.02,2.738662886,1.95,3.96,-1.43,66.29,0.116,29.71,5.47,12.49,-1.57187647,-1.22,-0.182005411,-0.29,2.55,51.58,48.18,-0.235,25.66,-0.93,2.99,-1.295289855,-0.83,0.094581204,0.1,2.6,6.35,56.71,-0.232,37.94,1.19,7.12,2.854138501,8.13,4.24400956,9.06,4.13,98.02,88.71,0.65,33.49,13.3,16.9,-3.692212937,-2.63,-2.302341878,-1.7,6.63,99.34,63.15,-0.032,46.06,3.36,18.92,-1.474538834,-1.01,-0.084667774,-0.08,1.87,26.61,61.5,0.13,42.33,1.94,7.22,-2.149740549,-1.86,-0.759869489,-0.93,3.31,34.74,54.42,0.006,30.39,1.24,6.65,-1.559430986,-1.23,-0.169559927,-0.3,2.29,21.17,43.15,-0.173,20.44,-0.58,1.69,-1.103958609,-0.89,0.28591245,0.04,1.57,55.87,58.05,0.015,38.96,0.71,3.69,0.037907506,0.15,1.427778565,1.08,0.15,75.41,60.59,0.045,17.12,0.77,-0.64,-1.966717095,1.36,-0.576846036,2.29,3.34,84.3,65.98,1.436,15.34,3.94,3.58
1/28/2020,0.008252105,0.515262096,-1.89,-0.357995227,-2.94,-0.873257323,-1.05,2.23,10.51,52.51,-0.225,48.46,0.47,10.18,0.822699799,-4.1,0.307437702,-2.21,4.17,25.98,44.47,-0.267,29.82,-1.35,6.76,2.957431911,-1.2,2.442169814,0.69,4.51,-5.19,72.52,0.214,56.8,12.44,39.56,0.202655486,-2.24,-0.312606611,-0.35,1.18,-1.65,51.44,0.035,51.25,1,6.04,-0.887411476,-2.91,-1.402673572,-1.02,3.17,-57.03,55.85,0.069,29.23,2.25,8.86,0.458241758,-1.79,-0.057020338,0.1,1.4,-6.31,38.66,-0.395,24.92,-2.6,1.09,0.830595964,-1.41,0.315333868,0.48,1.66,16,46.74,-0.719,35.57,-0.4,5.39,-1.543764988,-4.06,-2.059027084,-2.17,2.77,-63.68,69.13,0.718,35.66,8.17,11.85,1.671826625,-2.16,1.156564529,-0.27,3.84,-38.91,54.06,-0.203,43.45,0.85,15.61,0.701210053,-1.67,0.185947956,0.22,1.96,28.73,49.57,-0.22,39.44,0.12,5.2,1.26953125,-1.8,0.754269154,0.09,2.3,32.92,43.81,-0.14,28.95,-0.59,4.47,0.405280933,-1.14,-0.109981163,0.75,1.27,-9.79,34.08,-0.418,20.46,-1.61,0.47,0.145497322,-1.6,-0.369764774,0.29,0.76,-4.19,39.89,-0.524,36.79,-0.91,1.92,0.113636364,0.15,-0.401625733,2.04,0.13,2.27,63.76,0.047,16.85,0.88,-0.47,-2.332416801,-4.62,-2.847678897,-2.73,3.64,-30.37,46.47,1.072,14.87,-0.72,-1.32
1/29/2020,-0.004815585,0.737462806,1.43,1.628278951,2.83,0.890816144,1.4,1.95,-15.55,63.36,-0.254,46.65,2.85,12.8,2.108297303,3.23,1.370834497,1.8,3.45,-35.61,55.93,-0.29,28.62,1.61,9.85,-0.279688543,1.59,-1.017151349,0.16,3.3,-14.49,74.5,0.154,56.48,12.68,40.31,0.662508663,1.3,-0.074954144,-0.13,1.62,-13.75,58.19,-0.07,49.23,1.95,7.17,0.763270498,1.64,0.025807692,0.21,2.76,-18.38,59.72,0.188,28.82,3.63,10.31,0.692746536,1.36,-0.04471627,-0.07,1.52,-24.03,47.31,-0.419,23.54,-1.23,2.39,0.763394096,1.36,0.02593129,-0.07,2.4,-7.95,55.09,-0.879,33.51,0.72,6.57,1.218045113,2.47,0.480582307,1.04,2.44,-2.46,72.99,0.773,37.71,10.18,14.26,0.99940036,2.58,0.261937554,1.15,2.71,16.79,61.28,-0.238,41.68,2.99,17.79,1.025766272,1.96,0.288303466,0.53,1.62,-27.84,59.6,-0.27,37.73,1.88,7.02,0.994263862,1.87,0.256801056,0.44,1.42,-41.63,53.99,-0.173,26.94,1.11,6.12,0.224924012,0.83,-0.512538794,-0.6,1.16,-9.91,43.61,-0.485,19.85,-0.77,1.22,0.56297299,1.05,-0.174489817,-0.38,1.3,-24.2,50.87,-0.699,34.59,0.07,2.87,-0.113378685,0,-0.850841491,-1.43,0.19,-30.19,63.76,0.048,17,0.81,-0.46,1.524575001,3,0.787112195,1.57,2.03,-43.06,55.53,1.15,14.43,2.24,1.5
1/30/2020,0.016998731,-0.462532705,0.06,-0.033903529,2.09,0.428629176,2.03,1.99,58.38,69.28,-0.155,45.96,4.45,14.65,-0.747807106,-0.98,-0.285274402,-1.04,2,-14.37,52.19,-0.313,27.51,0.34,8.41,0.920808874,2.49,1.383341578,2.43,3.85,56.55,77.36,0.135,56.41,13.6,42.24,-0.011653414,0.42,0.450879291,0.36,1.28,-28.75,60.19,-0.118,47.66,1.94,7.35,-1.673352436,-1.54,-1.210819731,-1.6,3.16,21.56,54.66,-0.098,27.83,1.73,8.3,-0.321888412,0.26,0.140644293,0.2,1.06,-21.6,48.84,-0.381,22.07,-1.01,2.58,0.808345376,2.5,1.27087808,2.44,2.58,164.37,66.09,-0.637,32.89,2.79,8.95,-1.922223865,-1.46,-1.459691161,-1.52,2.85,-39.76,67.33,0.737,39.72,7.99,12.29,-0.689799331,-5.98,-0.227266627,-6.04,4.15,97.17,43.3,-0.461,39.55,-3.36,10.17,0.119161106,1.56,0.58169381,1.5,1.82,51.75,65.74,-0.143,37.09,3.13,8.41,-0.358220211,0.06,0.104312493,0,1.1,-24.55,54.27,-0.178,25.45,0.87,5.87,-0.708661417,-0.57,-0.246128713,-0.63,1.01,-10.25,39.25,-0.531,19.17,-1.29,0.55,-0.535964431,-0.08,-0.073431727,-0.14,0.68,-15.44,50.06,-0.754,32.81,-0.1,2.66,-0.03776435,0.15,0.424768354,0.09,0.19,-3.62,67.04,0.049,17.23,0.88,-0.3,-1.031731189,-0.25,-0.569198484,-0.31,2.61,7.03,54.64,1.289,14.73,1.91,1.11
1/31/2020,-0.019320779,0.95297547,0.26,1.037737144,-0.14,0.084761674,-0.4,1.65,-41.49,68.41,-0.138,44.82,3.79,14.02,1.738338645,0.11,0.785363175,-0.15,2.83,11.97,52.58,-0.35,25.75,0.24,8.19,1.326809183,10.3,0.373833713,10.04,5.13,59.23,85.21,0.337,57.17,22.63,54.81,1.102808411,-0.19,0.149832941,-0.45,1.43,24.17,58.75,-0.175,45.65,1.33,6.91,1.946643213,1.33,0.993667743,1.07,2.57,-30.34,58.04,-0.198,26.91,2.72,9.39,0.682454252,0.68,-0.270521218,0.42,1.19,201.11,52.9,-0.33,20.54,-0.39,3.2,1.452573476,-6.14,0.499598006,-6.4,3.19,45.12,39.21,-1.352,31.83,-3.61,2.13,1.264472882,0.21,0.311497412,-0.05,2.36,2.47,67.72,0.623,40.34,7.64,12.21,4.925790493,2.67,3.972815023,2.41,5.49,-37.4,50.14,-0.543,37.12,-1.07,12.51,-0.729675381,2.82,-1.682650851,2.56,1.89,46.89,73.85,0.234,37.68,5.55,11.12,0.512528474,0.19,-0.440446996,-0.07,1.76,34.4,55.3,-0.18,23.75,0.78,5.8,0.669368705,0,-0.283606764,-0.26,1.35,46.32,39.25,-0.594,19.52,-1.23,0.49,1.023554076,0.32,0.070578606,0.06,1.33,39.97,53.3,-0.801,30.83,0.14,2.87,-0.151343171,-0.3,-1.104318641,-0.56,0.19,5.44,55.82,0.042,16.78,0.5,-0.59,0.279969458,-0.73,-0.673006012,-0.99,2.2,-10.75,51.98,0.944,13.83,1.19,0.27
2/3/2020,0.005741099,-1.443091116,-1.59,-3.558408376,-4.43,-2.115317259,-2.84,4.65,57.47,47.98,-0.305,42.08,-0.96,8.64,-3.090543919,-3.82,-1.647452803,-2.23,4.1,27.51,39.94,-0.47,24.38,-3.52,3.86,1.65140496,1.52,3.094496076,3.11,3.15,-45.81,86.08,0.457,57.9,21.93,55.09,-2.360269589,-1.48,-0.917178473,0.11,2.9,80.47,48.75,-0.246,44.21,-0.41,5.14,-0.662080083,-0.76,0.781011034,0.83,1.86,-1.84,55.39,-0.385,26.06,1.71,8.26,-2.083871565,7.38,-0.640780449,8.97,2.66,146.03,75.96,0.199,22.68,6.65,10.61,-3.128148539,-3.64,-1.685057423,-2.05,3.78,-35.71,31.34,-2.113,31.38,-6.95,-1.64,-2.841945289,-3.82,-1.398854172,-2.23,3.61,36.42,54.39,0.396,39.82,3.26,7.73,-2.892561983,-3.65,-1.449470867,-2.06,3.81,-14.39,42.21,-0.632,34.86,-4.47,7.96,-1.149759015,-1.48,0.293332101,0.11,1.66,-29.95,64.7,0.304,37.66,3.69,9.18,-1.614434948,-2.17,-0.171343831,-0.58,2.5,26.97,42.99,-0.242,22.93,-1.53,3.29,-1.708302719,-2.07,-0.265211602,-0.48,2.42,39.14,27.15,-0.753,20.59,-3.13,-1.61,-1.611620795,-1.82,-0.168529679,-0.23,2,51.17,37.94,-1.061,29.84,-1.64,0.93,-0.265654649,-0.42,1.177436468,1.17,0.34,387.6,44.45,0.03,16.11,0.04,-0.98,-2.864782277,-3.19,-1.42169116,-1.6,3.59,4.71,42.09,0.265,13.27,-1.77,-2.92
2/4/2020,0.008394968,0.899603078,1.34,1.432796582,-0.27,0.533193504,-1.61,3.65,-12.83,47.05,-0.483,39.38,-1.4,8.01,1.964361476,1.65,1.064758399,0.31,2.36,-30.91,45.95,-0.511,23.1,-2.01,5.34,15.78016908,19.89,14.88056601,18.55,14.44,200.48,92.56,0.941,59.49,41.71,82.59,1.6374829,3.61,0.737879822,2.27,2.09,26.39,64.72,-0.169,43.46,2.73,8.67,3.098721345,3.74,2.199118268,2.4,3.73,27.63,64.23,0.147,26.49,5.02,11.9,-0.318312941,-0.23,-1.217916019,-1.57,2.41,-62.11,74.63,0.498,24.6,6.04,10.16,0.368659064,1.13,-0.530944014,-0.21,1.29,-50.54,35.64,-2.473,30.96,-5.8,-0.61,-0.054301451,0.77,-0.953904529,-0.57,1.15,-34.09,56.24,0.229,39.34,3.69,8.35,3.49137931,2.17,2.591776232,0.83,3.89,-21.96,47.5,-0.655,33.09,-2.34,9.8,2.317667077,2.44,1.418064,1.1,2.35,-16.58,71.16,0.482,38.05,5.71,11.48,3.154272606,4.17,2.254669528,2.83,3.41,46.9,61.07,-0.175,21.71,2.2,7.29,0.445544554,1.12,-0.454058523,-0.22,0.89,-43.01,38.28,-0.753,21.59,-1.97,-0.54,0.238132055,0.74,-0.661471023,-0.6,0.91,-39.35,45.02,-1.094,28.92,-0.93,1.59,0.113722517,0.49,-0.785880561,-0.85,0.17,9.67,56.17,0.028,15.11,0.47,-0.46,-0.130877204,0.02,-1.030480282,-1.32,0.97,-3.77,42.17,-0.298,12.75,-1.6,-2.85
2/5/2020,-0.008880197,0.740339569,2.1,1.12270464,3.3,0.382365071,1.2,1.88,-22.62,57.87,-0.439,37,1.54,11.18,0.447099947,2.83,-0.293239622,0.73,1.57,5.37,54.71,-0.406,22,0.55,8.01,0.464290568,13.73,-0.276049001,11.63,15.23,26.49,94.79,1.758,61.49,55.02,103.21,-0.686308825,-2.62,-1.426648394,-4.72,2.99,26.35,51.36,-0.23,41.21,-0.13,5.63,2.218836565,3.08,1.478496996,0.98,3.65,6.57,69.88,1.076,27.61,7.73,14.86,0.974934479,2.27,0.23459491,0.17,2.17,-10.9,78.78,0.744,26.51,8.03,12.4,1.555296891,2.76,0.814957322,0.66,2.57,23.48,45.08,-2.286,29.36,-3.14,1.99,-0.471339516,1.61,-1.211679085,-0.49,1.74,25.63,60.05,0.157,39.31,4.9,9.85,0.487705751,2.98,-0.252633818,0.88,2.31,-2.78,54.04,-0.54,31.04,0.46,12.49,1.682285198,3.29,0.941945629,1.19,2.4,20.2,77.5,0.914,39.32,8.5,14.71,1.076812635,4.37,0.336473066,2.27,3.3,26.18,71.89,0.041,22.54,6.09,11.57,0.279958615,1.51,-0.460380954,-0.59,0.7,-7.84,49.92,-0.558,20.91,-0.47,0.89,0.301764867,1.52,-0.438574702,-0.58,0.7,-10.48,56.42,-0.787,27.03,0.5,3.02,0.075671585,0.15,-0.664667983,-1.95,0.08,-45.46,59.12,0.028,14.43,0.54,-0.29,-0.060938452,2.09,-0.801278021,-0.01,1.58,5.65,49.67,-0.206,12.39,0.49,-0.82
2/6/2020,0.004411257,-0.683301825,0.43,-0.639836795,0.82,0.043465029,0.39,1.81,-11.74,60.17,-0.346,35.34,2,11.68,-0.488114608,1.47,0.195187217,1.04,1.99,-22.79,58.69,-0.269,21.55,1.81,9.26,-10.75723344,-17.18,-10.07393161,-17.61,19.31,-18.95,64.32,1.55,60.41,25.49,65.78,-0.970309487,0.08,-0.287007662,-0.35,2.3,-48.55,51.69,-0.267,39.12,-0.24,5.53,-1.454181939,0.18,-0.770880115,-0.25,3.5,-9.51,70.2,1.747,29,7.31,14.59,-1.504089772,-0.48,-0.820787947,-0.91,1.91,-16.74,75.81,0.855,28.4,7.14,11.6,-1.129358618,0.13,-0.446056794,-0.3,1.91,-34.53,45.52,-1.973,27.46,-2.94,1.96,0.974658869,2.87,1.657960694,2.44,2.18,11.84,66,0.192,39.83,7.19,12.72,-0.894810101,0.79,-0.211508277,0.36,2.23,-6.62,55.71,-0.418,29.51,1.09,12.8,-2.244199315,-0.12,-1.560897491,-0.55,3.22,8.13,76.78,1.19,40.89,7.64,14.14,-2.201867183,-1.42,-1.518565359,-1.85,2.91,-30.81,65.08,0.137,23.28,4.15,9.61,0.498558385,1.54,1.18186021,1.11,1.1,11.35,58.86,-0.268,19.7,0.99,2.35,0.177536287,1.15,0.860838112,0.72,0.73,5.12,62.98,-0.356,26.14,1.5,4.07,0.113122172,0.38,0.796423997,-0.05,0.19,-17.31,65.56,0.033,14.68,0.84,0.1,-0.037795276,1.85,0.645506549,1.42,1.24,10.37,55.48,0.231,12.61,2.27,0.99
2/7/2020,-0.000557754,0.326696,0.67,0.818427008,1.17,0.491731008,0.5,1.52,-14.91,63.39,-0.252,33.85,2.83,12.56,0.834932974,1.39,0.508236974,0.72,2.11,4.17,62.22,-0.136,21.35,2.93,10.4,7.006662909,1.94,6.679966909,1.27,14.53,-18.12,65.47,1.26,59.09,25.18,66.42,1.785800473,1.93,1.459104473,1.26,2.2,-16.02,59.14,-0.214,37.77,1.43,7.36,-0.716991342,-0.74,-1.043687342,-1.41,2.46,-39.39,67,1.864,30.29,6.09,13.31,0.451244966,0.51,0.124548966,-0.16,1.54,-30.1,76.83,0.866,29.9,7.23,11.9,0.180548297,0.35,-0.146147703,-0.32,0.88,-15.94,46.78,-1.682,25.7,-2.5,2.15,-0.312035661,-0.37,-0.638731661,-1.04,0.94,-25.96,64.58,0.186,40.32,6.11,12.02,1.06557377,-1.04,0.738877771,-1.71,3.57,13.48,52.86,-0.391,27.72,-0.12,11.08,1.469856882,2.07,1.143160883,1.4,2.05,-29.74,80.23,1.405,42.35,9.11,16.04,0.789520904,1.17,0.462824905,0.5,2.48,-11.8,67.83,0.202,23.97,4.99,10.52,-0.571802966,-0.23,-0.898498966,-0.9,0.83,-17.11,57.16,-0.059,18.86,0.71,2.04,0.020963733,0.34,-0.305732267,-0.33,0.42,-22.94,64.72,0.001,25.6,1.69,4.29,0.188323917,0.19,-0.138372083,-0.48,0.26,-63.77,68.33,0.038,15.44,0.95,0.31,0.266591394,0.73,-0.060104606,0.06,1.77,-9.28,57.66,0.544,12.59,2.84,1.69
2/10/2020,0.013617021,-0.064345876,-0.54,-0.725873996,-1.59,-0.661528119,-1.05,1.69,13.82,56.41,-0.257,32.14,1.03,10.4,-0.415611146,-1.04,-0.35126527,-0.5,1.18,-12.99,58.02,-0.073,21.17,1.68,8.91,2.398194784,-0.12,2.46254066,0.42,5.31,-57.38,65.32,0.988,57.87,22.3,63.78,0.813057998,0.2,0.877403874,0.74,1.32,-29.87,59.88,-0.16,36.64,1.43,7.34,0.473920666,-0.05,0.538266543,0.49,2.24,12.23,66.78,1.781,31.5,5.57,12.83,1.826159776,1.42,1.890505652,1.96,2.91,65.9,79.54,0.904,31.77,8.25,13.17,0.965287684,0.7,1.029633561,1.24,1.36,15.11,49.37,-1.342,24,-1.68,2.68,-1.256356566,-1.59,-1.19201069,-1.05,1.95,4.34,58.58,0.109,40.07,3.86,10,1.676548763,0.83,1.740894639,1.37,4.08,8.99,54.89,-0.316,26.13,0.63,11.44,0.571522328,0.14,0.635868204,0.68,1.71,20.58,80.46,1.505,43.89,8.56,15.75,-0.53437834,-0.59,-0.470032463,-0.05,1.24,-23.79,64.94,0.219,24.61,4.03,9.53,-0.847916291,-1.23,-0.783570414,-0.69,1.19,22.25,48.74,-0.058,18.06,-0.51,0.73,-0.186286882,-0.53,-0.121941005,0.01,0.72,28.19,59.76,0.126,24.66,1.07,3.6,0.263256863,0.23,0.32760274,0.77,0.27,-31.92,71.4,0.042,16.43,1.1,0.55,-0.970721287,-1.4,-0.90637541,-0.86,1.16,-30.18,52.19,0.558,12.57,1.25,0.26
2/11/2020,-0.005430101,1.419478113,1.13,2.345789038,0.47,0.926310925,-0.66,2.39,-4.98,57.92,-0.276,29.98,1.33,10.55,4.146534653,4.52,2.72705654,3.39,4.07,180.62,68.24,0.097,22.05,5.88,13.4,-3.589877244,3.1,-5.009355357,1.97,8.76,46.11,67.44,0.85,57.12,23.14,66.3,2.330565956,1.99,0.911087843,0.86,2.33,21.39,66.47,-0.057,36.28,3.17,9.2,1.663013699,1.17,0.243535585,0.04,3.31,20.9,69.48,1.726,32.82,6.16,13.69,2.345312493,2.63,0.925834379,1.5,2.37,-0.36,83.55,1.018,33.85,10.37,15.77,0.72806354,0.34,-0.691414573,-0.79,1.47,-2.27,50.69,-1.019,22.62,-1.23,2.88,1.266015863,0.56,-0.15346225,-0.57,1.45,23.34,60.01,0.027,39.34,3.84,10.37,5.639781686,5.09,4.220303573,3.96,5.64,15.34,65.14,-0.145,25.44,5.32,16.43,2.788974834,2.62,1.369496721,1.49,2.96,7.97,84.16,1.665,45.61,10.51,18.26,1.065908687,1.88,-0.353569426,0.75,1.41,72.1,69.53,0.26,25.53,5.51,11.22,0.759601361,0.56,-0.659876752,-0.57,0.86,-36.76,52.29,-0.032,17.32,0.03,1.22,1.041572321,0.75,-0.377905792,-0.38,1.06,-34.8,64.03,0.263,24,1.68,4.24,0.074962519,0.15,-1.344515594,-0.98,0.21,167.54,73.31,0.046,17.68,1.16,0.71,0.585843711,-0.33,-0.833634402,-1.46,1.37,22.22,50.95,0.369,11.9,0.68,-0.06
2/12/2020,0.00485589,-0.433327927,0.11,-1.233003708,-0.6,-0.799675781,-0.71,1.62,-13.74,55.21,-0.278,28.27,0.67,9.54,0.213227592,1.87,0.64655552,1.76,2.86,20.57,71.56,0.317,23.64,7.52,15.03,0.72698609,0.4,1.160314018,0.29,3.29,-52.62,67.73,0.647,56.42,21.22,64.44,-0.199760552,0.01,0.233567376,-0.1,1.59,-5.3,66.49,0.042,36.44,2.94,8.93,-0.016053512,0.71,0.417274416,0.6,2.25,-9.85,71.07,1.77,34.26,6.38,13.97,-0.004649217,0.79,0.428678711,0.68,2.32,13.64,84.59,1.125,36.17,10.5,16.27,-1.42728008,-2.76,-0.993952152,-2.87,2.1,111.12,41.13,-1.072,21.53,-3.62,-0.07,0.867873709,1.54,1.301201637,1.43,1.69,-19.39,63.83,0.029,39.22,4.79,11.77,1.089815859,2.95,1.523143786,2.84,2.92,22.55,69.79,0.1,25.65,7.87,19.14,-3.257277734,-2.26,-2.823949807,-2.37,3.9,48.31,70.93,1.531,47.36,7.35,15.14,0.260235947,1.58,0.693563875,1.47,1.85,4.8,72.91,0.322,26.95,6.71,12.56,0.110267598,0.69,0.543595526,0.58,1.01,31.47,56.42,0.082,16.52,0.69,1.83,-0.270607375,0.17,0.162720553,0.06,0.7,31.1,65,0.426,23.98,1.74,4.28,-0.074934432,-0.11,0.358393495,-0.22,0.13,5,69.44,0.044,18.84,0.96,0.61,1.108479394,1.9,1.541807321,1.79,1.49,-19.21,57.45,0.61,12.01,2.28,1.8
2/13/2020,0.004627693,0.385607828,0.9,1.78243693,2.37,1.396829103,1.47,1.76,20.58,62.79,-0.197,27.09,2.83,11.72,0.937002333,1.74,0.551394505,0.84,1.6,-41.33,74.38,0.481,25.14,8.83,16.5,-1.360060164,-0.92,-1.745667992,-1.82,3.44,2.78,66.22,0.438,55.82,18,60.56,0.250250911,0.63,-0.135356917,-0.27,0.83,-13.17,68.55,0.1,36.59,3.27,9.35,0.750304894,1.69,0.364697066,0.79,1.25,-3.1,74.62,1.959,35.75,7.55,15.37,-0.147928994,0.43,-0.533536822,-0.47,1.16,-41.97,85.15,1.138,38.32,10.16,16.34,1.400048112,1.72,1.014440284,0.82,1.81,-44.81,47.78,-0.922,20.44,-1.77,1.51,-0.207100592,0.07,-0.592708419,-0.83,1.16,-13.29,64.02,0.031,39.26,4.22,11.55,-1.173665872,0.17,-1.5592737,-0.73,2.45,-38.44,70.05,0.257,25.97,7.44,18.66,-0.468800517,0.15,-0.854408345,-0.75,2.17,-11.47,71.25,1.223,48.26,6.8,14.87,-0.119863014,0.93,-0.505470841,0.03,1.15,-7.84,74.77,0.37,28.42,7.2,13.18,0.053565052,0.69,-0.332042776,-0.21,0.6,-19.29,60.25,0.207,15.92,1.34,2.43,0.175162545,0.64,-0.210445283,-0.26,0.36,-21.78,68.49,0.591,24.11,2.25,4.8,0.300075019,0.26,-0.085532809,-0.64,0.34,-35.91,73.12,0.043,20.32,1.13,0.89,0.82598435,1.42,0.440376522,0.52,1.07,-1.4,61.74,1.029,12.57,3.46,3.16
2/14/2020,0.000519588,0.568807833,-0.14,0.20975354,-0.71,-0.359054294,-0.57,0.88,-16.69,59.36,-0.167,26,1.88,10.56,0.210947041,-0.65,-0.357860792,-0.51,1.61,40.94,71.41,0.539,26.58,7.59,15.2,8.379165319,4.78,7.810357485,4.92,10.32,118.67,70.06,0.314,54.62,20.99,65.63,0.130231574,-0.24,-0.438576259,-0.1,1.49,-20.37,66.82,0.116,36.89,2.77,8.85,1.177843803,0.37,0.60903597,0.51,2.32,-3.01,75.36,2.014,37.4,7.3,15.29,0.227506888,-0.47,-0.341300945,-0.33,1.32,-9.07,81.49,1.026,39.83,8.84,15.37,1.726059368,1.13,1.157251535,1.27,2.41,11.46,51.82,-0.63,19.22,-0.48,2.51,0.671742051,-0.03,0.102934218,0.11,1.35,-25.56,63.87,-0.002,38.78,3.51,11.23,2.058768482,1.19,1.489960649,1.33,3.1,12.27,71.95,0.351,26.14,8.07,19.37,0.344111864,-0.54,-0.22469597,-0.4,1.83,-25,68.17,0.906,49.14,5.6,13.85,1.205649328,0.74,0.636841495,0.88,2.45,-5.46,76.22,0.395,30.12,7.47,13.59,0.795359407,0.26,0.226551573,0.4,1.09,4.31,61.68,0.294,15.66,1.56,2.6,0.356664238,-0.11,-0.212143595,0.03,0.76,26.13,67.25,0.624,23.87,2,4.55,0.112191473,0.11,-0.45661636,0.25,0.17,243.68,74.58,0.043,21.82,1.13,1,0.77454274,-0.22,0.205734906,-0.08,1.39,-9.49,60.64,1.205,12.98,2.88,2.87
2/18/2020,0.005870995,#N/A,#N/A,#N/A,#N/A,#N/A,#N/A,#N/A,#N/A,#N/A,#N/A,#N/A,#N/A,#N/A,#N/A,#N/A,#N/A,#N/A,#N/A,#N/A,#N/A,#N/A,#N/A,#N/A,#N/A,#N/A,#N/A,#N/A,#N/A,#N/A,#N/A,#N/A,#N/A,#N/A,#N/A,#N/A,#N/A,#N/A,#N/A,#N/A,#N/A,#N/A,#N/A,#N/A,#N/A,#N/A,#N/A,#N/A,#N/A,#N/A,#N/A,#N/A,#N/A,#N/A,#N/A,#N/A,#N/A,#N/A,#N/A,#N/A,#N/A,#N/A,#N/A,#N/A,#N/A,#N/A,#N/A,#N/A,#N/A,#N/A,#N/A,#N/A,#N/A,#N/A,#N/A,#N/A,#N/A,#N/A,#N/A,#N/A,#N/A,#N/A,#N/A,#N/A,#N/A,#N/A,#N/A,#N/A,#N/A,#N/A,#N/A,#N/A,#N/A,#N/A,#N/A,#N/A,#N/A,#N/A,#N/A,#N/A,#N/A,#N/A,#N/A,#N/A,#N/A,#N/A,#N/A,#N/A,#N/A,#N/A,#N/A,#N/A,#N/A,#N/A,#N/A,#N/A,#N/A,#N/A,#N/A,#N/A,#N/A,#N/A,#N/A,#N/A,#N/A,#N/A,#N/A,#N/A,#N/A,#N/A,#N/A,#N/A,#N/A,#N/A,#N/A,#N/A,#N/A,#N/A,#N/A,#N/A,#N/A,#N/A,#N/A,#N/A,#N/A,#N/A,#N/A,#N/A,#N/A,#N/A,#N/A,#N/A,#N/A,#N/A,#N/A,#N/A,#N/A,#N/A,#N/A,#N/A,#N/A,#N/A,#N/A,#N/A,#N/A,#N/A,#N/A,#N/A
2/19/2020,0.005344556,0.554807088,0.02,1.154236428,-1.83,0.59942934,-1.85,1.61,90.68,50.74,-0.265,23.61,-0.12,7.88,3.825186351,2.34,3.270379263,2.32,4.2,-40.31,82.88,1.028,31.6,15.81,24.71,1.996196533,7.3,1.441389444,7.28,3.22,6.4,74.68,0.312,52.93,23.29,71.26,0.308250825,-0.07,-0.246556263,-0.09,1.25,-6.4,67.72,0.109,37.71,2.73,8.69,2.235697337,1.94,1.680890249,1.92,2.67,38.65,77.79,1.867,40.61,7.73,16.26,1.442339366,0.97,0.887532278,0.95,1.95,13.23,78.31,0.674,41.51,7.64,14.87,1.990166237,1.69,1.435359149,1.67,2.1,45.51,59.25,0.069,17.89,1.98,4.46,-0.660859117,-1.68,-1.215666205,-1.7,1.22,-4.77,54.05,-0.149,37.26,0.42,8.58,3.549326538,2.86,2.99451945,2.84,5.78,34.34,78.07,0.542,27.63,11.48,23.14,0.875515207,1.01,0.320708119,0.99,1.18,20.32,73,0.531,50.78,6.42,15.18,0.288184438,0.8,-0.26662265,0.78,1.12,63.7,77.18,0.363,33.06,7.2,13.56,0.023880597,-0.21,-0.530926491,-0.23,0.97,-16.19,56.31,0.265,14.65,1.05,1.8,0.065376958,-0.26,-0.489430131,-0.28,0.73,-11.35,64.8,0.498,23,1.72,4.18,0,0.37,-0.554807088,0.35,0.25,-8.73,77.94,0.041,25.17,1.26,1.34,-1.349206349,-2.21,-1.904013438,-2.23,2.24,39.54,44.04,0.252,12.33,-1.51,-1.33
2/20/2020,-0.007266356,0.351330548,0.87,1.13125,1.45,0.779919452,0.58,1.41,-38.48,56.27,-0.256,22.12,1.22,9.07,4.381571528,6.11,4.03024098,5.24,4.42,11.65,87.21,1.36,34.48,21.3,31.38,-0.658472843,6.88,-1.009803391,6.01,4.77,52.25,78.94,0.599,53.05,28.35,79.65,0.106224632,0.46,-0.245105916,-0.41,0.7,-15.33,69.65,0.106,38.22,3.05,8.9,-0.497268886,-0.41,-0.848599434,-1.28,2.08,-5.48,74.97,1.766,42.34,6.58,15.32,0.111633915,0.67,-0.239696634,-0.2,1.1,-13.21,79.76,0.578,42.52,7.62,15.21,-0.22936832,-0.14,-0.580698868,-1.01,1.02,-22.36,58.57,0.345,17.66,1.93,4.14,1.084500678,1.47,0.73317013,0.6,1.52,6.15,59.3,-0.182,36.45,1.39,9.9,1.569236075,3.53,1.217905527,2.66,2.99,-16.7,81.94,0.695,29.05,14.53,26.68,-0.414761246,0.03,-0.766091795,-0.84,0.91,7.7,73.07,0.402,51.7,5.82,14.77,0.616666667,2.05,0.265336118,1.18,1.74,17.28,81.04,0.398,34.97,8.72,15.44,0.136766367,0.51,-0.214564181,-0.36,0.95,-17.44,59.85,0.28,14.48,1.55,2.22,0.162823056,0.48,-0.188507492,-0.39,0.47,-15.05,68.08,0.486,22.84,2.1,4.53,0,0.19,-0.351330548,-0.68,0.15,65.81,79.94,0.043,27.28,1.34,1.52,0.85942492,1.59,0.508094372,0.72,1.63,-23.14,50.01,0.01,11.68,-0.07,0.22
2/21/2020,-0.013611473,-0.492285084,-0.67,-0.722189505,-1.03,-0.229904421,-0.36,2.01,7,51.64,-0.285,20.6,0.14,7.6,-1.299760971,-1.91,-0.807475886,-1.24,6.47,16.67,79.79,1.412,36.36,17.66,28,-1.375074634,-1.96,-0.882789549,-1.29,5.79,-30.63,74.68,0.579,52.27,22.99,73.05,-0.252956636,-0.56,0.239328448,0.11,1.5,15.52,64.43,0.058,37.73,2.37,8.01,-0.14486755,-0.05,0.347417535,0.62,3.37,-16.68,74.61,1.313,42.24,5.65,14.83,-0.918976379,-0.79,-0.426691295,-0.12,2.29,22.26,73.33,0.396,42.25,6.07,13.88,-0.895991132,-1.34,-0.403706048,-0.67,2.71,8.03,52.28,0.36,16.65,0.73,2.61,-2.371718377,-2.47,-1.879433293,-1.8,4.17,95.2,48.71,-0.286,34.39,-1.32,6.97,-2.002053388,-2.77,-1.509768304,-2.1,5.01,26.63,70.71,0.661,29.43,10.74,22.39,-1.353303022,-1.53,-0.861017938,-0.86,3.33,22.88,63.04,0.052,50.26,3.66,12.61,-0.448803191,-0.8,0.043481893,-0.13,2.99,-12.5,75.42,0.354,35.63,7.28,14.1,0.541989279,0.24,1.034274364,0.91,1.49,83.78,61.5,0.268,13.77,1.76,2.35,-0.234587139,-0.41,0.257697945,0.26,1.47,52.08,62.5,0.314,21.22,1.6,3.95,0.185597624,0.3,0.677882709,0.97,0.21,56.67,82.73,0.045,29.47,1.5,1.81,-1.503376226,-2.04,-1.011091142,-1.37,3.09,24.34,43.31,-0.465,11.73,-2.05,-1.8
2/24/2020,-0.009654721,-1.353727489,-1.79,-1.748163957,-2.26,-0.394436468,-0.47,3.18,28.98,43.05,-0.407,20.17,-2.03,4.87,-3.326868076,-4.74,-1.973140587,-2.95,4.94,-5.03,64.85,1.164,37.28,11.21,21.23,-0.659221074,0.18,0.694506415,1.97,3.62,-18.69,74.81,0.511,51.55,20.5,70.26,-1.519863663,-2.18,-0.166136174,-0.39,2.14,57.97,48.72,-0.075,35.83,0.14,5.42,-1.365063712,-1.54,-0.011336223,0.25,2.48,-3.53,63.98,0.642,42.14,3.6,12.68,-2.155778073,-2.65,-0.802050584,-0.86,2.7,48.52,56.45,0.081,40.82,2.72,10.52,-1.545812254,-2.05,-0.192084765,-0.26,2.57,7.55,44.29,0.069,16.11,-1.11,0.42,-1.288738877,-1.7,0.064988612,0.09,1.88,-21.44,43,-0.428,32.12,-3.07,4.96,-6.048315994,-6.97,-4.694588505,-5.18,7.34,19.34,51.52,0.374,27.99,2.87,13.29,-2.500409456,-3.16,-1.146681967,-1.37,3.5,31.84,48.09,-0.534,47.68,0.05,8.73,-1.561975143,-2.14,-0.208247654,-0.35,2.38,-5.02,62.56,0.226,35.53,4.53,11.3,-0.624442462,-1.01,0.729285027,0.78,1.38,-7.96,51.65,0.175,12.96,0.74,1.22,-0.593197603,-1.03,0.760529886,0.76,0.97,53.82,50.91,-0.012,20.08,0.52,2.76,-0.408314774,-0.59,0.945412715,1.2,0.47,211.09,63.22,0.036,29.78,0.81,1.21,-1.296596434,-1.53,0.057131055,0.26,2.35,-3.88,39.04,-1.06,12.19,-3.32,-3.25
2/25/2020,-0.032759608,0.35740561,-3.71,0.309493373,-4.75,-0.047912237,-1.04,5.01,69.73,31.22,-0.744,21.56,-6.39,-0.29,1.143639661,-7.07,0.786234051,-3.36,5.08,10.07,50.05,0.573,35.63,2.91,12.26,-0.620918129,-7.46,-0.978323739,-3.75,4.95,4.73,59.97,0.131,49.69,9.54,55.13,-0.316946098,-4.28,-0.674351708,-0.57,1.8,58.87,32.04,-0.382,34.87,-3.99,0.78,1.080162298,-2.99,0.722756689,0.72,3.21,75.46,49.07,-0.788,39.46,0.28,9.02,0.305015026,-4.14,-0.052390584,-0.43,2.55,39.86,40.67,-0.455,38.47,-1.88,5.73,-0.53518335,-4.5,-0.89258896,-0.79,2.73,61.77,32.44,-0.762,17.24,-5.18,-4.11,0.237772566,-4.01,-0.119633044,-0.3,2.35,28.66,33.01,-0.674,31.19,-6.48,0.67,1.961598339,-7.81,1.60419273,-4.1,5.67,-3.19,39.2,-0.167,27.28,-5.05,4.1,1.85968886,-4.31,1.50228325,-0.6,6.62,39.7,35.67,-1.541,46.04,-4.42,3.83,1.046176046,-4.42,0.688770437,-0.71,2.82,119.03,45.22,-0.064,33.24,-0.37,6.17,0.129741752,-3.01,-0.227663858,0.7,3.68,49.87,33.91,-0.167,14.07,-2.2,-1.83,-0.222813641,-3.32,-0.580219251,0.39,3.82,41.65,30.73,-0.813,21.48,-2.72,-0.69,-0.111648679,0.04,-0.469054288,3.75,0.37,-72.01,63.81,0.026,29.63,0.76,1.25,-0.883752549,-4.24,-1.241158159,-0.53,3,48.92,30.08,-2.162,13.69,-6.94,-7.21
2/26/2020,-0.003235153,-3.608029072,-2.77,-4.276457883,-3.39,-0.668428812,-0.62,5.69,4.78,25.85,-1.026,23.04,-9.27,-3.8,-5.158673285,-4.11,-1.550644214,-1.34,7.95,24.65,44.02,0.004,33.27,-1.73,7.32,-5.782155477,-4.06,-2.174126406,-1.29,8.7,15.13,53.97,-0.284,47.33,3.45,46.68,-3.108862526,-2.33,0.499166545,0.44,4.01,-9.95,26.73,-0.642,34.65,-6.09,-1.66,-3.201612903,-2.34,0.406416168,0.43,4.98,-6.14,41.03,-2.035,36.69,-2.29,6.23,-2.649006623,-1.82,0.959022449,0.95,3.86,-4.39,35.96,-0.884,36.77,-4,3.65,-2.719137786,-1.97,0.888891285,0.8,3.84,-6.02,28.86,-1.408,18.55,-6.65,-5.98,-3.645749314,-3.29,-0.037720243,-0.52,4.72,29.02,27.44,-0.908,31.11,-9.15,-2.66,-6.980836918,-3.16,-3.372807847,-0.39,8.66,3.46,35.67,-0.555,26.24,-7.9,0.51,-3.518943743,-1.65,0.089085329,1.12,4.28,0.27,32.28,-2.158,44.45,-6.15,1.96,-4.501323919,-3.43,-0.893294847,-0.66,5.74,-30.84,36.82,-0.334,31.84,-3.98,2.4,-3.821068176,-3.55,-0.213039105,-0.78,4.35,58.49,23.59,-0.712,16.33,-5.47,-5.26,-3.485213311,-3.03,0.12281576,-0.26,4.13,35.14,22.13,-1.906,23.84,-5.51,-3.69,-0.260901975,-0.3,3.347127096,2.47,0.42,5.72,55.81,0.014,28.88,0.4,0.96,-3.886301044,-3.06,-0.278271972,-0.29,5.19,-12.7,25.57,-3.218,15.68,-9.41,-9.89
2/27/2020,-0.032004605,-0.341561663,0.17,2.135902,1.59,2.477463662,1.42,3.89,-13.85,31.75,-1.139,24.41,-7.46,-2.41,2.13309929,2.14,2.474660953,1.97,5.03,-28.98,47.52,-0.333,31.08,0,9.24,-0.472907046,-2.64,-0.131345384,-2.81,4.78,-18.14,50.48,-0.684,44.95,-0.64,40.88,-0.212013122,0.34,0.129548541,0.17,2.63,-11.07,28.61,-0.794,34.52,-5.58,-1.42,3.529797166,5.32,3.871358829,5.15,4.48,38.26,58.03,-1.987,34.71,2.48,11.53,0.472521672,0.35,0.814083335,0.18,2.74,-15.74,37.47,-1.139,35.19,-3.97,3.86,0.005071251,0.22,0.346632914,0.05,2.9,-22.76,29.8,-1.769,19.82,-5.98,-5.74,-0.765263683,-0.13,-0.423702021,-0.3,2.6,-24,27.24,-1.046,31.11,-8.74,-2.82,-0.293932396,-0.17,0.047629267,-0.34,4.67,-2.03,35.48,-0.819,25.29,-7.78,0.06,0.271050616,1.25,0.612612278,1.08,2.97,-17.17,37.22,-2.428,42.97,-5.11,3.04,-1.580882353,-1.04,-1.23932069,-1.21,3.9,-18.81,34.73,-0.556,30.9,-5.03,1.23,-1.623686724,-1.16,-1.282125061,-1.33,2.77,-11.32,21.33,-1.174,18.75,-6.27,-6.28,-0.853014196,-0.37,-0.511452533,-0.54,2.38,-11.37,21.34,-2.67,26.12,-5.64,-4.03,-0.037327361,0.07,0.304234302,-0.1,0.28,192.3,57.3,0.005,28.18,0.41,1.05,0.538069281,1.13,0.879630943,0.96,1.47,-27.6,29.77,-3.678,17.53,-7.9,-8.71
2/28/2020,0.038756856,-2.030528258,-4.61,-2.696549271,-6.54,-0.666021013,-1.93,4.77,61.34,23.18,-1.41,26.44,-12.81,-8.82,-0.902314633,-5.62,1.128213624,-1.01,7.17,20.91,40.04,-0.758,29.65,-5.74,2.85,-6.986296585,-12.81,-4.955768327,-8.2,10.42,71.52,37.66,-1.354,42.34,-13.91,21.55,-3.228198464,-5.39,-1.197670207,-0.78,4.14,35.13,19.71,-1.06,35.48,-10.24,-6.75,0.067301998,-1.99,2.097830255,2.62,5.64,22.39,51.54,-1.953,33.75,0.06,9.01,-2.588943227,-4.81,-0.55841497,-0.2,4.9,55.41,27.47,-1.511,34.83,-8.65,-1.21,-1.079136691,-3.78,0.951391567,0.83,3.36,30.97,23.77,-2.315,21.65,-8.81,-9.22,-3.625064733,-6.4,-1.594536476,-1.79,4.85,61.06,19.6,-1.301,32.2,-13.89,-8.99,-3.01895108,-7.33,-0.988422822,-2.72,9.16,22.46,28.42,-1.194,25.72,-14.25,-7.43,-3.147195689,-7.05,-1.116667432,-2.44,5.72,65.24,25.45,-3.156,42.88,-11.55,-4.28,-1.033492823,-3.42,0.997035435,1.19,6.56,49.64,28.79,-0.792,31.06,-8.19,-2.27,-1.513049224,-3.52,0.517479034,1.09,4.16,25.84,16.15,-1.718,21.75,-9.16,-9.47,-2.602632096,-4.49,-0.572103838,0.12,4.72,46.53,14.44,-3.785,29.12,-9.48,-8.26,-0.075075075,-0.6,1.955453182,4.01,0.34,6.36,44.11,-0.012,26.57,-0.22,0.46,-2.265429897,-4.17,-0.234901639,0.44,4.3,50.88,24.13,-4.354,19.86,-11.12,-12.32
3/2/2020,0.039571093,3.599024879,0.01,6.258260126,-0.06,2.659235247,-0.07,8.06,33.15,23.12,-1.607,28.97,-12.15,-8.92,11.38965054,6.92,7.790625663,6.91,11.36,25.18,50.16,-0.877,28.78,0.32,9.51,6.080752739,-1.62,2.481727861,-1.63,11.83,1.18,36.53,-1.889,40.59,-15.46,18.4,4.839921722,1.61,1.240896843,1.6,5.24,27.27,26.86,-1.204,36.95,-8.43,-5.3,1.323412317,-0.72,-2.275612562,-0.73,5.41,1.92,49.36,-2.466,31.36,-0.94,7.91,3.809040962,-0.03,0.210016083,-0.04,4.17,16.57,27.43,-1.814,35.26,-8.7,-1.33,5.350447467,1.43,1.751422588,1.42,5.67,50.27,29.55,-2.611,23.99,-7.12,-7.86,2.246777164,-0.56,-1.352247715,-0.57,5.01,43.81,19.12,-1.476,33.72,-13.64,-9.44,9.974610083,3.34,6.375585205,3.33,11.24,-5.4,34.54,-1.351,26.37,-11.1,-4.56,6.298799291,2.42,2.699774413,2.41,7.23,4.18,32.97,-3.508,43.34,-9.13,-2.09,6.360708535,2.19,2.761683656,2.18,6.13,3.7,36.27,-0.912,31.61,-6.17,-0.25,1.021746634,-1.83,-2.577278244,-1.84,3.57,45.1,14.22,-2.225,25.02,-10.34,-11,2.618635262,-0.42,-0.980389617,-0.43,4.17,36.23,14,-4.742,32.39,-9.43,-8.57,-0.33809166,-0.34,-3.937116539,-0.35,0.83,269.81,38.57,-0.027,25.86,-0.58,0.14,3.527892758,-0.49,-0.071132121,-0.5,4.18,28.04,23.58,-4.919,22.52,-10.94,-12.57
3/3/2020,-0.02338917,3.288512704,4.49,5.855887771,9.31,2.567375067,4.82,7.94,-20.03,46.7,-1.266,28.73,-3.81,-0.65,-0.169736367,2.35,-3.458249071,-2.14,6,-21.5,53.35,-0.779,27.52,1.93,11.57,4.549816206,11.32,1.261303502,6.83,7.67,-17.79,48.41,-1.871,38.19,-6.43,30.24,2.774468967,3.72,-0.514043738,-0.77,4.61,-35.86,40.63,-1.07,36.62,-4.88,-1.89,2.128058749,3.26,-1.160453955,-1.23,4.42,-37.4,58.18,-2.17,29.56,1.79,11.02,2.4893915,3.73,-0.799121205,-0.76,4.33,-28.78,41.58,-1.718,34.36,-5.17,2.19,1.242075968,2.06,-2.046436737,-2.43,3.93,-23.43,37.27,-2.344,25.27,-5.08,-5.94,4.28392185,4.79,0.995409145,0.3,6.36,-28.96,34.51,-1.382,33.97,-9.09,-5.16,0.084352594,4.35,-3.20416011,-0.14,6.36,1.65,41.96,-1.242,26.32,-7.27,-0.71,4.524832134,6.65,1.236319429,2.16,6.14,-26.83,49.05,-2.915,41.88,-3.16,4.18,0.989729225,2.35,-2.298783479,-2.14,3.64,-17.51,43.5,-0.849,31.2,-4.16,1.93,2.067986754,3.21,-1.22052595,-1.28,3.87,-53.55,30.15,-2.211,27.18,-7.19,-8.06,3.648435666,4.33,0.359922962,-0.16,4.76,-38.33,36.51,-4.358,33.2,-5.32,-4.61,-0.075728891,-0.53,-3.364241595,-5.02,0.49,-64.54,31.68,-0.048,26.4,-1.13,-0.37,2.966469143,4.53,-0.322043561,0.04,5,-28.31,38.19,-4.273,23.47,-6.59,-8.51
3/4/2020,0.017328644,-3.134488182,-2.99,-4.725524418,-3.18,-1.591036236,-0.19,6.29,-6.42,41.43,-1.015,28.27,-6.57,-3.96,-4.584836923,-3.81,-1.450348741,-0.82,7,-26.71,47.73,-0.762,26.06,-2.42,6.91,-7.390057522,0.25,-4.25556934,3.24,12.19,27.68,48.68,-1.698,35.78,-5.99,29.02,-4.146717926,-3.44,-1.012229744,-0.45,5.83,-1.2,33.84,-0.988,35.75,-7.69,-5.28,-3.217594415,-3.22,-0.083106233,-0.23,7.08,19.53,48.57,-2.109,28.84,-1.63,7.11,-3.360383118,-2.3,-0.225894936,0.69,5.67,11.43,36.51,-1.606,32.8,-7.14,-0.29,-5.264499032,-5.37,-2.13001085,-2.38,7.14,12.17,28.16,-2.435,26.87,-9.78,-10.9,-3.549887989,-3.8,-0.415399807,-0.81,6.47,15.3,29.35,-1.294,33.73,-11.97,-8.76,-4.650214155,-1.5,-1.515725973,1.49,9.69,38.75,40.14,-1.081,25.31,-8.54,-2.43,-5.345224396,-4.79,-2.210736214,-1.8,7.74,0.91,40.72,-2.642,40.16,-7.54,-0.96,-3.108429329,-2.02,0.026058853,0.97,6.92,6.17,39.16,-0.789,29.91,-6.01,-0.25,-2.078231518,-2.04,1.056256664,0.95,5.33,28.21,26.56,-2.109,28.06,-8.68,-9.82,-2.991922456,-2.86,0.142565726,0.13,5.42,25.9,30.41,-4.034,33.2,-7.69,-7.29,-0.416824555,-0.42,2.717663627,2.57,0.61,-1.23,27.41,-0.065,27.19,-1.52,-0.75,-3.653609696,-3.76,-0.519121514,-0.77,6.17,-6.4,32.25,-3.886,23.98,-9.65,-11.78
3/5/2020,-0.008258775,2.082724896,3.85,2.125219269,4.64,0.042494373,0.79,3.39,-31.39,50.24,-0.666,27.84,-1.99,0.29,5.29607698,7,3.213352084,3.15,6.22,-8.48,56.68,-0.548,24.38,3.7,13.82,-1.892768016,0.54,-3.975492912,-3.31,5.58,-41.63,49.29,-1.562,33.54,-4.66,28.16,2.00775439,3.36,-0.074970505,-0.49,3.24,-20.36,43.72,-0.819,34.94,-4.38,-2.16,1.59356222,4.07,-0.489162675,0.22,3.52,-34.4,58,-1.664,28.18,2.18,11.04,1.503156835,3.5,-0.579568061,-0.35,2.83,-36.65,47.15,-1.345,31.35,-3.72,2.99,1.36913887,3.16,-0.713586026,-0.69,2.84,-17.59,37.59,-2.198,28.36,-6.52,-8.03,2.929310647,4.84,0.846585752,0.99,4.35,-41.25,41.3,-1.072,33.51,-7.21,-4.41,3.85492228,7.19,1.772197384,3.34,5.85,-34.27,51.23,-0.796,24.37,-2.03,4.2,1.225628394,3.67,-0.857096501,-0.18,2.98,-30.5,47.89,-2.169,38.57,-3.89,2.47,1.144544951,3.4,-0.938179944,-0.45,3.55,-38.11,48.57,-0.654,28.71,-2.69,2.95,1.250998137,2.85,-0.831726759,-1,2.58,-15.92,37.81,-1.775,28.88,-5.72,-7.17,2.201750947,4.2,0.119026052,0.35,3.12,-41.14,44.98,-3.114,33.2,-3.57,-3.4,0,0.34,-2.082724896,-3.51,0.27,-57.06,35.33,-0.067,27.71,-1.16,-0.39,2.850039634,4.08,0.767314738,0.23,3.84,-21.56,42.62,-3.022,24.45,-5.55,-8.05
3/6/2020,0.011440489,-0.585773297,-3.1,-0.879805089,-3.24,-0.294031792,-0.14,2.78,-14.42,44.77,-0.505,27.55,-4.73,-3.08,-1.160940325,-3.94,-0.575167029,-0.84,4.28,-9.55,50.85,-0.481,22.82,-0.8,8.89,0.106525627,-3.33,0.692298924,-0.23,3.82,-27.88,45.5,-1.509,31.36,-7.78,22.53,-2.307806251,-4.87,-1.722032954,-1.77,4.08,33.87,35.03,-0.828,34.84,-8.63,-6.9,-2.157480315,-2.87,-1.571707018,0.23,6.11,59.4,50.47,-1.638,28.09,-0.8,7.51,-0.464045525,-2.62,0.121727772,0.48,2.64,-0.52,41.21,-1.225,30.17,-5.98,0.14,-0.861976657,-3.44,-0.27620336,-0.34,2.75,-16.17,32.3,-2.197,29.95,-9.18,-11.08,-0.175254118,-2.93,0.410519179,0.17,3.6,-0.42,36.9,-0.919,33.31,-9.18,-7.21,-1.170912079,-3.99,-0.585138782,-0.89,4.59,5.35,45.64,-0.643,23.5,-5.78,-0.25,0.135505435,-2.51,0.721278732,0.59,3.12,-4.01,43.73,-1.9,37.06,-5.94,-0.25,0.582706767,-2.34,1.168480064,0.76,2.79,-9.61,43.28,-0.584,27.6,-4.79,0.42,-1.021230852,-3.18,-0.435457555,-0.08,4.75,-9.42,31.62,-1.653,30.1,-8.15,-9.98,-0.826283691,-3.32,-0.240510394,-0.22,2.8,5.48,37.74,-2.802,33.47,-6.34,-6.55,-0.266768293,-0.76,0.319005004,2.34,0.46,38.18,27.83,-0.078,29,-1.84,-1.11,-1.161364784,-4,-0.575591487,-0.9,3.88,3.82,36.32,-2.706,25.05,-8.67,-11.53
3/9/2020,-0.021036049,1.258705258,-1.87,2.492907801,-1.33,1.234202544,0.54,3.32,20.58,42.72,-0.476,27.9,-5.43,-4.48,0.256255653,-2.65,-1.002449605,-0.78,3.91,-4.61,47.35,-0.602,22.4,-3.63,5.62,1.953252377,-2.91,0.69454712,-1.04,3.23,16.68,42.44,-1.547,29.38,-10.2,17.76,1.671808686,-1.56,0.413103428,0.31,3.48,3.88,32.81,-0.895,35.36,-9.5,-8.31,0.345390264,-1.02,-0.913314994,0.85,3.92,-6.86,48.06,-2.24,26.77,-1.84,6.08,1.391466667,-1.19,0.132761409,0.68,2.18,11.06,38.8,-1.199,29.61,-6.76,-1.19,1.54769248,-2.2,0.288987223,-0.33,4.15,27.03,29.45,-2.379,31.97,-10.53,-12.9,1.069227981,-2.09,-0.189477276,-0.22,2.64,24.61,34.11,-0.879,33.78,-10.27,-9.13,-1.719255663,1,-2.977960921,2.87,5.76,26.74,47.18,-0.513,22.94,-4.78,0.41,-0.639567062,-2.83,-1.89827232,-0.96,4.4,52.29,39.53,-2.064,36.79,-8.02,-3.17,1.02753005,-2.62,-0.231175207,-0.75,3.47,39,38.22,-0.612,27.44,-6.95,-2.3,1.184219746,-1.98,-0.074485511,-0.11,3.46,21.46,28.5,-1.733,31.8,-9.33,-11.6,1.47023708,-1.65,0.211531822,0.22,2.87,23.06,34.76,-2.894,34.41,-7.36,-8.01,0.347088315,-0.57,-0.911616943,1.3,0.46,85.17,23.65,-0.093,30.96,-2.3,-1.63,0.925162934,-1.67,-0.333542324,0.2,3.13,23.77,34.07,-2.798,26.23,-9.45,-12.8
3/10/2020,0.013428936,-0.091104094,-7.29,0.917535545,-7.91,1.008639639,-0.62,5.67,24.92,32.89,-0.729,29.09,-12.14,-12.03,2.30929554,-7.74,2.400399633,-0.45,8.65,17.33,38.9,-0.94,23.13,-11,-2.76,0.431127398,-13.57,0.522231492,-6.28,9.54,31.74,31.7,-1.849,28.52,-21.69,1.05,0.851240355,-6.38,0.942344449,0.91,4.5,26.2,25.59,-1.104,36.52,-14.49,-14.03,0.764846158,-6.09,0.855950252,1.2,4.55,-9.78,36.64,-3.748,25.41,-7.57,-0.64,1.508010779,-5.29,1.599114872,2,5.64,46.21,30.21,-1.408,30.22,-11.08,-6.46,-0.058962264,-6.4,0.03214183,0.89,5.79,21,23.04,-3.012,34.43,-15.36,-18.27,-2.060862866,-8.82,-1.969758772,-1.53,5.33,54.24,25.31,-1.08,35.24,-17.18,-17.02,0.557750407,-10.95,0.6488545,-3.66,8.85,-36.38,34.99,-0.692,23.56,-14.66,-10.7,-0.251655629,-6.78,-0.160551535,0.51,5.15,-4.07,31.66,-2.589,37.08,-13.44,-9.73,-0.458333333,-8.31,-0.36722924,-1.02,6.08,23.85,27.27,-0.854,28.65,-14.06,-10.38,-2.810706031,-9.72,-2.719601938,-2.43,4.53,41.16,18.65,-2.438,34.27,-17.25,-19.93,-0.388666909,-7.81,-0.297562815,-0.52,3.92,34.02,24.68,-3.998,36.13,-13.82,-15.03,0,-1.08,0.091104094,6.21,4.29,70.85,18.02,-0.132,34.44,-3.18,-2.63,-1.338218894,-8.06,-1.247114801,-0.77,6.47,45.07,25.7,-3.792,28.18,-15.79,-19.54
3/11/2020,-0.00727329,1.514521105,4.95,2.95879339,7.2,1.444272284,2.25,5.98,0.98,44.74,-0.627,29.36,-5.25,-5.77,1.76970453,6.37,0.255183424,1.42,5.78,-3.99,46.9,-0.952,23.65,-5.29,3.14,-2.138210273,6.14,-3.652731378,1.19,9.3,-6.52,38.47,-1.874,27.64,-16.2,6.39,1.618253968,5.33,0.103732863,0.38,4.87,-22.23,37.54,-1.028,36.83,-9.2,-9.37,2.161745108,5.09,0.647224002,0.14,4.58,3.46,47.52,-3.783,23.61,-2.77,4.09,1.119259386,5.07,-0.395261719,0.12,4.02,-7.49,42.95,-1.249,30.19,-6.01,-1.84,2.015228717,5.13,0.500707612,0.18,4.93,-17.5,34.86,-2.803,36.02,-10.24,-13.91,2.312357847,6.16,0.797836742,1.21,6.61,-34.61,36.83,-1.008,35.85,-11.18,-11.84,-0.066064743,4.88,-1.580585849,-0.07,5.16,-3.83,41.63,-0.703,24.13,-9.89,-6.54,1.745068285,6.84,0.23054718,1.89,5.25,-6.45,43.43,-2.354,36.72,-6.77,-3.64,0.300601202,4.75,-1.213919903,-0.2,5.09,-14.16,37.67,-0.874,29.61,-9.42,-6.15,-0.207853908,3.12,-1.722375014,-1.83,5.04,-3.82,26.8,-2.644,36.71,-13.81,-17.19,1.327993255,5.17,-0.186527851,0.22,5.21,-10.16,37.06,-3.906,37.07,-8.7,-10.51,0.810497877,1.48,-0.704023228,-3.47,0.97,91.37,39.66,-0.11,35.64,-1.65,-1.16,2.459176118,6.13,0.944655012,1.18,7.71,25.84,37.6,-3.61,29.56,-9.85,-14.34
3/12/2020,-0.046569756,-2.263942234,-4.7,-0.706586395,-3.47,1.557355839,1.23,3.4,-11.92,40.62,-0.607,29.61,-7.86,-9.06,-3.517329066,-5.6,-1.253386832,-0.9,5.69,-14.32,41.29,-1.07,24.31,-10.24,-2.78,-0.932521087,-1.72,1.331421147,2.98,6.4,-15.09,37.25,-1.842,26.82,-16.88,3.78,-2.743858526,-5.08,-0.479916292,-0.38,5.34,-2.06,31.85,-1.052,37.38,-12.9,-13.84,-2.507522568,-3.9,-0.243580334,0.8,5.2,-20.91,41.19,-4.186,22.14,-6.27,-0.21,-1.991011115,-3.75,0.272931119,0.95,3.83,-21.73,37.09,-1.226,30.33,-8.79,-5.58,-2.166542153,-4.46,0.097400081,0.24,4.83,-17.21,30.15,-2.79,37.6,-13.44,-17.58,-1.393395686,-4.3,0.870546548,0.4,4.9,4.35,32.68,-0.967,36.41,-13.88,-15.49,3.417062684,0.71,5.681004918,5.41,4.75,32.55,42.62,-0.638,24.41,-8.52,-5.98,-2.227703869,-4.53,0.036238365,0.17,4.26,-14.27,38.25,-2.38,36.53,-10.2,-8.01,-3.534730785,-6.21,-1.270788551,-1.51,6.18,-8.68,30.93,-0.967,30.8,-14.21,-11.91,-3.849679193,-6.36,-1.58573696,-1.66,6.43,-4.71,21.72,-2.968,39.19,-18.21,-22.16,-2.258639116,-4.87,0.005303117,-0.17,4.03,-7.38,31.38,-4.178,38.07,-12.3,-14.68,0.460829493,0.15,2.724771727,4.85,0.62,-85.93,41.46,-0.087,36.72,-1.4,-0.98,-3.115645187,-6.44,-0.851702953,-1.74,5.69,-34.7,31.37,-3.886,30.88,-14.57,-19.5
3/13/2020,0.040897314,-2.659699564,-9.43,-3.012424787,-9.88,-0.352725223,-0.45,8.86,66.54,31.71,-0.906,30.85,-15.85,-17.92,-4.058369556,-12.24,-1.398669992,-2.81,9.39,64.14,32.4,-1.524,26.03,-20.41,-14.63,-3.501523524,-11.62,-0.84182396,-2.19,8.61,42.8,30.19,-2.028,26.83,-25.53,-8.78,-0.984902309,-8.27,1.674797255,1.16,7.23,65.26,25.26,-1.277,38.66,-18.93,-20.74,-3.445635528,-9.91,-0.785935964,-0.48,9.01,100.7,30.26,-6.4,22.89,-14.82,-10.17,-2.634757663,-7.92,0.024941901,1.51,5.37,103.23,28.36,-1.557,31.49,-14.99,-12.99,-3.177886423,-9.26,-0.518186859,0.17,7.94,113.16,23.23,-3.437,39.7,-20.32,-24.97,-5.04587156,-11.85,-2.386171996,-2.42,10.37,32.76,24.56,-1.214,37.97,-22.67,-25.25,-7.119047619,-14.64,-4.459348055,-5.21,8.97,6.35,30.59,-0.905,25.73,-20.73,-19.68,-4.294562973,-9.48,-1.634863409,-0.05,10.71,66.39,30.24,-2.988,37.35,-17.61,-16.61,-5.894495413,-12.59,-3.234795849,-3.16,6.9,90.13,22.45,-1.331,32.95,-23.8,-22.81,-4.110644857,-11.05,-1.450945293,-1.62,7.41,36.27,16.18,-3.81,42.01,-25.9,-30.39,-3.08203125,-9.57,-0.422331686,-0.14,7.65,53.03,23.81,-5.511,39.9,-19.55,-22.57,0.723809524,1.07,3.383509088,10.5,1.76,346.19,52.52,-0.048,35.85,-0.29,0.09,-3.616899423,-11.05,-0.957199859,-1.62,12.09,78.74,24.22,-5.262,33.07,-22.59,-28.02
3/16/2020,-0.07097865,3.475380368,9.35,4.93789875,11.98,1.462518382,2.63,9.7,-11.41,46.08,-0.733,31.1,-5.01,-8.07,4.485900217,11.34,1.010519849,1.99,8.89,-22.25,43.41,-1.504,27.17,-10.9,-5.05,-8.131253671,-2.49,-11.60663404,-11.84,19.31,19.73,29.04,-2.109,27.27,-26.12,-11.44,3.454622561,9.4,-0.020757807,0.05,8.41,-12.46,39.71,-1.142,39.17,-10.35,-13.14,1.750325255,6.68,-1.725055113,-2.67,8.63,-21.65,40.84,-6.795,23.52,-8.57,-4.32,1.709401709,6.46,-1.765978659,-2.89,5.92,-22.36,40.13,-1.478,32.18,-8.64,-7.38,4.127682994,10.23,0.652302626,0.88,7.75,-19.04,38.86,-2.969,40.85,-11.18,-17.11,12.78491504,19.52,9.309534675,10.17,13.34,-3.66,46.15,-0.885,37.22,-6.54,-10.58,4.028436019,12.54,0.553055651,3.19,9.82,-19.33,43.54,-0.828,26.33,-9.82,-9.66,7.681355932,14.22,4.205975564,4.87,13.34,-0.54,46.98,-2.388,36.7,-5.2,-4.78,-1.695692026,4.56,-5.171072394,-4.79,11.85,-9.34,29.27,-1.448,35.21,-19.14,-19.11,0.980475023,6.7,-2.494905345,-2.65,8.71,-17.52,27.29,-3.873,44.69,-19.63,-25.38,2.368010947,8.55,-1.107369421,-0.8,8.52,-16.29,37.38,-5.207,40.96,-11.7,-15.73,3.27436959,3.78,-0.201010778,-5.57,5.21,-58.65,72.86,0.038,34.54,3.35,3.83,3.86465932,7.06,0.389278952,-2.29,14.22,31.79,33.75,-5.619,35.48,-15.79,-22.56
3/17/2020,0.040552802,-6.602973462,-12.32,0.107460219,-12.86,6.710433681,-0.54,7.88,-14.41,35.97,-0.989,31.84,-16.04,-19.73,-7.537309919,-18.45,-0.934336458,-6.13,16.34,13.49,32.69,-1.93,29.04,-26.06,-22.41,-5.203514377,-18.58,1.399459085,-6.26,11.84,-10.93,22.17,-2.452,28.2,-38.37,-28.02,-1.064781022,-11.1,5.53819244,1.22,7.18,12.73,31.08,-1.282,40.02,-19,-22.54,-2.540521149,-11.14,4.062452312,1.18,13.25,10.71,31.42,-8.128,24.63,-17.85,-14.91,2.902205896,-5.37,9.505179358,6.95,7.9,0.23,34.55,-1.557,33.21,-12.55,-12.28,-4.142594538,-14.25,2.460378924,-1.93,10.98,10.98,28.84,-3.635,42.55,-22.46,-28.62,-6.10397811,-18.04,0.498995352,-5.72,19.32,9.66,34.15,-1.032,37.3,-21.88,-26.46,-0.946775844,-11.82,5.656197617,0.5,12.55,-3.97,35.69,-0.919,27.12,-19.1,-20.23,-3.271428571,-14.74,3.33154489,-2.42,10.6,-5.75,35.71,-2.897,36.55,-17.95,-18.66,-3.541944075,-15.57,3.061029387,-3.25,9,10.35,21.7,-1.769,37.64,-30.25,-31.4,-4.60320383,-13.27,1.999769632,-0.95,9.53,0.67,20.81,-4.418,47.41,-28.75,-34.87,-0.551455345,-10.94,6.051518117,1.38,8.15,-9.54,29.32,-6,42.34,-20.08,-24.64,-0.337711069,-3.21,6.265262392,9.11,1.36,25.47,51.35,0.038,32.86,0.07,0.5,-9.895282928,-19.91,-3.292309466,-7.59,20.56,-9.39,23.73,-7.498,38.12,-30.94,-37.52
3/18/2020,0.023144708,3.715780543,6.23,2.161528827,4.4,-1.554251716,-1.83,7.6,1.48,40.3,-1.005,32.58,-11.34,-16.08,8.142949579,10.63,4.427169036,4.4,13.74,13.44,40.37,-1.958,30.86,-16.96,-14.09,-2.229494784,-3.34,-5.945275327,-9.57,17.63,18.14,21.35,-2.64,29.42,-38.6,-30.5,2.44165729,3.27,-1.274123253,-2.96,6.68,-9.53,35.18,-1.254,40.96,-15.09,-19.78,4.432033444,7,0.716252901,0.77,10.21,-5.3,40.01,-8.118,25.83,-11.27,-8.95,1.823179215,7.03,-1.892601328,0.8,9.32,21.73,45.06,-1.19,32.57,-5.56,-6.13,-0.875679979,2.34,-4.591460522,-3.89,9.33,-12.79,31.6,-3.8,44.24,-19.18,-26.63,9.45251885,12.26,5.736738307,6.03,12.84,-2.97,43.28,-0.856,37.37,-11.06,-17.28,4.205026126,8.19,0.489245583,1.96,10.94,10.4,42.7,-0.826,27.9,-11.08,-13.69,4.692857143,8.23,0.9770766,2,8.53,-8.06,42.95,-2.702,36.41,-10.09,-11.89,2.32869379,5.55,-1.387086753,-0.68,12.89,-30.66,27.93,-1.818,40.05,-24.87,-27.31,3.248856707,4.58,-0.466923836,-1.65,9.13,0.72,26.61,-4.326,49.95,-23.94,-31.48,3.166829905,5.4,-0.548950638,-0.83,7.56,-11.68,36.05,-5.678,43.63,-14.57,-20.29,0.371333086,1.77,-3.344447457,-4.46,0.7,-12.98,58.6,0.068,31.96,1.81,2.26,4.00896674,6.36,0.293186197,0.13,9.29,-8.35,29.67,-8.042,40.58,-25.01,-33.07
3/19/2020,0.011244587,1.267979462,-4.7,2.877757851,-2.45,1.609778389,2.25,5.22,-6.75,38.61,-1.025,33.32,-12.32,-17.98,1.361751806,-6.65,0.093772344,-1.95,14.43,6.33,37.12,-2.066,32.82,-20.79,-19.63,-7.141397354,-16.03,-8.409376816,-11.33,15.05,-0.83,17.92,-2.878,30.87,-46.32,-41.57,3.813499162,-2.05,2.5455197,2.65,6.31,12.19,33.74,-1.216,41.99,-15.45,-21.18,4.323814878,-1.34,3.055835416,3.36,10.01,26.67,38.9,-7.504,26.18,-11.59,-10.1,4.571428571,1.23,3.303449109,5.93,5.28,-10.72,46.83,-0.811,31.98,-3.54,-5.01,5.15921288,-1.65,3.891233418,3.05,7.54,10.76,30.65,-3.826,45.91,-18.97,-27.49,1.926782274,-4.93,0.658802812,-0.23,10.19,-5.04,40.46,-0.778,37.44,-13.95,-21.14,-1.062215478,-6.59,-2.33019494,-1.89,13.29,15.51,38.63,-0.838,28.95,-15.16,-19.27,1.739130435,-4.21,0.471150973,0.49,7.82,1.54,40.17,-2.616,36.29,-12.62,-15.47,-2.281690141,-9.26,-3.549669603,-4.56,12.77,19.18,24.17,-1.911,42.45,-30.06,-33.7,-2.988840369,-7.75,-4.256819831,-3.05,10.53,4.96,23.26,-4.353,52.41,-28.11,-36.35,1.587301587,-5.06,0.319322125,-0.36,8.48,24.67,32.64,-5.734,45.11,-17.53,-24,0.771208226,1.52,-0.496771236,6.22,2.88,182.59,63.83,0.116,32.25,3.25,3.76,-9.582031671,-15.86,-10.85001113,-11.16,18.95,40.27,24.13,-9.423,43.25,-35.1,-43.18
3/20/2020,-0.059120598,2.202974366,2.3,-1.053094526,-0.77,-3.256068892,-3.07,4.18,-9.45,38.07,-0.941,33.72,-11.81,-18.45,5.451574569,5,3.248600204,2.7,10.96,-11.92,40.84,-1.854,34.01,-15.24,-15.46,14.12941657,18.39,11.9264422,16.09,21.87,27.81,29.94,-2.661,31.33,-34.14,-30.87,2.03467362,1.69,-0.168300746,-0.61,8.77,-13.76,36.08,-1.01,41.63,-12.67,-19.63,2.374125119,5.25,0.171150754,2.95,9.54,-15.48,45.4,-5.616,25.24,-6.24,-5.36,1.125268817,2.78,-1.077705548,0.48,5.97,8.37,50.87,-0.276,30.04,-0.14,-2.45,4.440049107,4.2,2.237074741,1.9,9.88,6.15,36.01,-3.033,45.59,-14.11,-24.11,-3.971571906,-3.51,-6.174546272,-5.81,8.86,-9.68,38.58,-0.726,37.51,-15.48,-23.63,0.657229525,1.79,-1.545744841,-0.51,10.07,-16.22,40.23,-0.753,29.92,-11.98,-17.71,-0.042025636,1.65,-2.245000001,-0.65,7.81,5.31,41.74,-2.174,35.46,-10.01,-13.95,8.649425287,8.99,6.446450922,6.69,12.19,-15.99,33.01,-1.71,43.96,-22.04,-27.44,4.224362834,3.9,2.021388468,1.6,10.7,1.74,27.94,-3.93,54.71,-23.52,-33.43,0.526645768,0.21,-1.676328598,-2.09,6.3,-11.3,32.92,-5.266,46.48,-15.96,-23.52,-2.769124264,2.37,-4.97209863,0.07,4.09,-1.43,70.41,0.184,33.31,5.48,6.13,15.9926032,15.83,13.78962883,13.53,21.84,-24.57,35.38,-8.3,43.94,-23.12,-33.72
3/23/2020,-0.027981299,-5.084801885,-3.79,-7.25786876,-6.35,-2.173066874,-2.56,10.4,47.76,33.75,-0.998,34.68,-16.14,-23.4,-6.050228311,-3.39,-0.965426425,0.4,12.24,5.11,39.02,-1.565,33.98,-16.65,-18.15,-2.43484988,-0.03,2.649952005,3.76,11.98,-6.33,29.94,-2.266,31.31,-31.66,-30.91,-5.58236185,-3.85,-0.497559965,-0.06,7.32,-1.35,33.06,-0.873,41.29,-14.66,-22.47,-2.769419532,0.24,2.315382353,4.03,5.56,2.24,45.71,-3.784,24.23,-5.38,-5.13,-4.164438746,-1.85,0.92036314,1.94,7.38,-5.6,48.09,0.039,28.09,-1.34,-4.3,-4.031534419,-2.22,1.053267467,1.57,7.53,-18.3,34.38,-2.335,45.3,-14.57,-25.45,-1.462051172,-0.24,3.622750713,3.55,8.62,17.53,38.45,-0.622,37.48,-14.22,-23.53,-4.577210311,-0.53,0.507591574,3.26,7.33,20.15,39.88,-0.607,30.4,-11.1,-17.98,-5.924657534,-3.76,-0.839855649,0.03,8.18,-1.23,39.09,-2,35,-12.25,-17.02,-3.196930946,0.11,1.887870939,3.9,7.29,6.08,33.12,-1.375,44.35,-20.25,-27.04,-4.596581848,-2.38,0.488220037,1.41,8.2,20.23,26.79,-3.327,56.29,-23.49,-34.55,-5.661155321,-4.87,-0.576353436,-1.08,6.98,19.49,29.75,-5.03,47.87,-18.56,-26.88,0.035714286,-0.28,5.120516171,3.51,1.41,67.95,68.7,0.199,34.14,4.95,5.72,-4.841584158,-1.15,0.243217727,2.64,10.81,-0.53,34.9,-6.648,44.48,-22.27,-34.01
3/24/2020,0.027651967,0.195552102,-0.27,-1.626622238,-2.12,-1.82217434,-1.85,7.08,-16.17,32.47,-1.146,36.07,-16.8,-24.77,3.393126246,3.37,3.197574143,3.64,8.44,-19.98,41.8,-1.308,34.2,-12.77,-15.24,0.159132658,1.58,-0.036419445,1.85,7.25,-41.83,31.2,-1.912,31.44,-28.29,-29.83,-0.442844759,-1.46,-0.638396862,-1.19,5.47,12.28,31.97,-0.833,41.53,-14.67,-23.34,3.558596108,8.24,3.363044006,8.51,7,23.91,55.37,-1.107,22.7,2.54,2.56,4.107782793,3.07,3.912230691,3.34,5.64,-20.47,52.76,0.31,26.38,1.98,-1.45,-1.042362689,-1.09,-1.237914791,-0.82,6.79,-8.41,33.57,-1.915,45.37,-14.21,-25.91,7.735767058,8.18,7.540214955,8.45,9.23,-10.79,45.47,-0.348,36.94,-6.13,-17.04,2.511078287,5.12,2.315526184,5.39,8.09,-4.82,44.99,-0.413,31.01,-5.75,-13.63,-0.751769944,-1,-0.947322046,-0.73,5.92,-6.94,38.4,-1.93,34.88,-12.15,-17.67,2.130492676,1.32,1.934940574,1.59,6.83,1.08,34.63,-1.086,44.91,-17.66,-25.75,-1.944521604,-1.48,-2.140073707,-1.21,6.28,-15.6,26.07,-2.887,57.91,-22.81,-35.06,-2.296332004,-2.56,-2.491884106,-2.29,5.12,-6.15,28.24,-5.046,49.45,-19.21,-28.38,0.394831299,-0.14,0.199279197,0.13,0.97,-67.41,67.79,0.196,34.92,4.58,5.45,0.304069555,0.65,0.108517452,0.92,9.42,-36.63,35.45,-5.375,45.24,-20.19,-33.09
3/25/2020,-0.004619782,3.08095301,8.12,4.450837705,10.03,1.369884696,1.91,5.42,-14.62,43.5,-0.804,35.7,-7.75,-17.03,8.812227074,17.16,5.731274065,9.04,9.88,71.1,54.04,-0.502,32.08,2.47,-0.77,5.803582652,16.28,2.722629643,8.16,7.86,39.14,43.14,-1.265,30.35,-14.54,-18.57,2.780470569,7.37,-0.300482441,-0.75,3.91,-17.3,42.41,-0.492,40.32,-7.43,-17.47,-3.424416876,-0.82,-6.505369886,-8.94,5.57,-13.46,54.22,0.904,21.67,1.74,1.6,-0.610140317,1.96,-3.691093326,-6.16,2.82,-8.47,55.67,0.642,24.65,4.07,0.41,3.720885281,8.7,0.639932271,0.58,5.43,2.04,44.94,-0.713,44.17,-5.77,-19.15,-1.392547986,5.69,-4.473500996,-2.43,6.28,7.11,50.21,0.117,34.77,-0.1,-12.14,4.950045413,11,1.869092404,2.88,6.1,5,54.66,0.048,29.49,4.78,-4.11,3.193043478,9.09,0.112090469,0.97,5.62,4.48,47.68,-1.044,33.32,-3.55,-10.09,2.479941648,9.91,-0.601011361,1.79,4.34,5.93,45.07,-0.586,44.01,-8.33,-18.14,3.482964791,9.15,0.402011781,1.03,8.62,15.21,37.5,-1.871,57.63,-14.18,-28.67,3.724084976,9.06,0.643131966,0.94,4.24,-27.87,39.93,-3.499,49.06,-10.77,-21.55,0.362976407,-1.14,-2.717976603,-9.26,0.83,169.82,60.62,0.165,35.12,3.21,4.15,3.462361408,9.97,0.381408399,1.85,8.19,34.21,43.59,-2.715,44.23,-10.94,-25.97
3/26/2020,0.051901491,-0.499369388,-0.45,-2.085742772,-0.55,-1.586373384,-0.1,5.68,3.18,43.03,-0.444,34.59,-7.44,-17.28,-3.223010244,-1.43,-2.723640856,-0.98,7.39,-28.32,52.83,0.124,29.92,1.46,-2.24,-1.100412655,6.78,-0.601043267,7.23,8.51,-8.02,48,-0.601,28.7,-6.85,-13.3,-2.128773958,-2.82,-1.62940457,-2.37,5.7,20.95,39.63,-0.26,38.91,-8.96,-19.55,-5.160378926,-4.18,-4.661009539,-3.73,6.67,-24.91,48.54,1.309,20.37,-1.99,-2.7,-1.814452098,-2.8,-1.31508271,-2.35,3.42,-9.76,50.63,0.734,22.92,1.42,-2.41,-1.705260508,-2.96,-1.205891121,-2.51,6.36,14.85,41.98,0.082,42.84,-7.45,-21.21,-2.324695122,-2.18,-1.825325734,-1.73,7.56,-17.95,48.32,0.362,33.17,-1.49,-13.84,-4.616371019,-3.44,-4.117001632,-2.99,7.73,-12.92,51.19,0.327,27.68,1.5,-7.36,-1.336377678,-0.96,-0.83700829,-0.51,6.73,-9.88,46.78,-0.29,31.24,-3.74,-10.84,1.225150254,3.89,1.724519642,4.34,7.83,25.61,48.98,-0.078,41.93,-3.74,-14.76,0.447570332,0.85,0.94693972,1.3,7.26,-23.44,38.57,-0.813,56.39,-11.9,-27.62,0.784089517,1.5,1.283458905,1.95,6.73,27.87,41.83,-1.762,47.43,-8.34,-20.05,-0.58076225,-0.94,-0.081392863,-0.49,1.24,-26,55.33,0.122,34.83,2.12,3.09,2.409048714,2.25,2.908418102,2.7,15.99,1.89,45.49,0.01,41.83,-7.62,-23.87
3/27/2020,-0.010760777,4.493708968,5.6,4.83530748,5.26,0.341598512,-0.34,4.77,-14.87,48.88,-0.046,33.53,-2.3,-12.76,1.299519572,4.73,-3.194189397,-0.87,4.75,-11.66,56.36,0.654,27.93,6.16,2.21,-3.513031373,-2.06,-8.006740342,-7.66,9.04,-17.27,46.57,-0.138,27.13,-7.57,-15.34,4.492714517,5.38,-0.000994451,-0.22,6.58,-11.65,46.8,0.053,37.18,-3.44,-15.04,5.520348837,6.02,1.026639869,0.42,6.09,-17.21,55.66,2.282,19.05,4.03,2.96,2.812302839,3.69,-1.681406129,-1.91,3.44,-3.32,56.28,0.89,21.33,4.96,1.1,3.2164297,4.56,-1.277279268,-1.04,4.27,-23.97,47.7,1.002,41.47,-2.47,-17.33,7.34441438,8.35,2.850705411,2.75,7.72,1.06,55.33,0.726,30.94,6.77,-6.54,3.75709917,6.43,-0.736609798,0.83,4.42,-20.51,56.7,0.605,26,7.6,-1.47,5.19541779,6.26,0.701708822,0.66,5.31,-13,53.13,0.657,29.01,2.35,-5.25,3.863533665,4.98,-0.630175304,-0.62,4.96,10.28,53.83,0.401,39.63,1.69,-10.4,4.724762417,6.22,0.231053449,0.62,5.48,-7.9,46.13,0.376,54.54,-5.2,-22.71,4.680987496,5.84,0.187278528,0.24,5.26,-14.05,48.92,0.311,45.33,-2.33,-15.11,-0.73664825,-1.61,-5.230357219,-7.21,0.81,62.9,47.54,0.059,33.78,0.42,1.37,7.583064195,11.78,3.089355227,6.18,7.72,-6.12,54.57,3.048,39.56,3.94,-14.55
3/30/2020,0.022893803,-0.686633352,-3.79,-1.982195846,-4.14,-1.295562494,-0.35,3.56,-19.14,44.66,0.146,32.54,-5.89,-16.16,1.092,-1.75,1.778633352,2.04,5.71,-8.42,54.6,0.936,26.01,4.67,0.3,1.853463511,-2.61,2.540096864,1.18,6.18,-17.48,44.72,0.11,25.91,-8.75,-17.76,-1.328986293,-4.39,-0.642352941,-0.6,4.03,-10.22,42.03,0.196,35.57,-6.8,-18.55,-0.548608984,-1.62,0.138024368,2.17,4.36,9.87,53.32,2.898,17.85,2.53,1.13,-1.593072517,-2.83,-0.906439165,0.96,2.1,-13.59,51.11,0.864,19.86,1.94,-1.81,-0.891276865,-4.01,-0.204643513,-0.22,3.41,-6.39,43.34,1.338,40.39,-5.37,-20.32,-1.965555972,-5.71,-1.278922619,-1.92,4.92,-23.73,49.77,0.83,28.87,0.98,-11.69,0.561312608,-1.94,1.24794596,1.85,4.45,0.92,54.51,0.751,24.25,5.39,-3.4,-1.350906096,-4.11,-0.664272743,-0.32,3.8,-11.83,48.63,1.059,26.94,-1.46,-9.07,-1.574448943,-4.81,-0.887815591,-1.02,4,-43.93,48.62,0.602,37.79,-2.21,-14.53,0.276169265,-3.64,0.962802617,0.15,4.58,-22.51,42.52,1.059,52.86,-7.38,-25.08,0.059225333,-2.98,0.745858685,0.81,3.85,-12.59,45.59,1.526,43.38,-4.48,-17.33,-1.292466765,-0.82,-0.605833413,2.97,1.65,-42.54,44.09,0.003,32.27,-0.44,0.5,-0.991416309,-5.13,-0.304782957,-1.34,5.24,-34.51,50.06,4.64,37.45,-0.5,-18.53
3/31/2020,-0.003042434,2.514551405,3.62,1.623195342,2.85,-0.891356064,-0.77,2.4,-17.75,47.96,0.357,31.62,-2.38,-13.54,4.006109023,5.09,1.491557617,1.47,4.66,-5.73,58.69,1.217,24.39,10.25,5.23,-1.593306935,-2.38,-4.10785834,-6,5.06,-16.55,43.05,0.256,24.81,-8.97,-19.87,1.935931167,3.25,-0.578620238,-0.37,4.81,-19.77,46.33,0.362,34.23,-2.78,-15.68,2.192837466,3.88,-0.32171394,0.26,4.48,8.47,57.95,3.9,17.28,6.65,4.85,2.138514585,3.36,-0.37603682,-0.26,3.12,13.7,56.25,0.954,18.99,5.34,1.44,4.253046865,5.84,1.73849546,2.22,5.24,-9.5,50.38,2.045,38.49,1.09,-15.35,4.717871296,5.96,2.203319891,2.34,5.89,-0.02,54.74,1.014,27.16,7.27,-6.29,1.312447079,2.75,-1.202104327,-0.87,3.76,-8.19,57.07,0.879,22.61,8.23,-0.71,5.110207295,7.03,2.595655889,3.41,6.61,11.18,55.51,1.758,25.75,5.91,-2.67,0.927811722,1.92,-1.586739683,-1.7,4.18,23.23,50.64,0.746,36.18,0.73,-12.73,1.589544331,2.2,-0.925007075,-1.42,3.88,3.94,45.3,1.619,51.31,-3.91,-22.99,2.326945639,3.25,-0.187605766,-0.37,3.4,-23.49,49.62,2.714,41.41,-0.49,-14.35,-0.148754184,0.45,-2.663305589,-3.17,0.41,-45.22,46.45,-0.031,30.87,-0.08,0.9,3.406546081,4.08,0.891994676,0.46,5.38,32.69,53.3,5.874,35.57,4.57,-14.79
4/1/2020,-0.01595692,-0.516275068,-0.95,-0.512519562,-0.2,0.003755506,0.75,4.13,16.78,47.72,0.538,30.19,-1.93,-13.51,-1.347305389,-0.75,-0.831030322,0.2,6.7,57.2,57.8,1.386,23.4,9.47,4.25,4.538449338,4.36,5.054724406,5.31,8.77,47.07,47,0.45,23.35,-3.06,-16.56,1.351869607,1.39,1.868144675,2.34,3.2,-3.64,48.22,0.561,32.46,-0.67,-14.29,2.057456581,1.22,2.573731649,2.17,4.41,8.01,59.41,4.676,17.04,7.85,5.88,-0.744775626,-0.72,-0.228500558,0.23,2.51,-17.22,54.83,0.99,18.45,4.46,0.64,0.797679478,0.51,1.313954546,1.46,4.03,4.46,51.01,2.684,36.21,2.2,-14.61,-1.707228478,-2.47,-1.19095341,-1.52,4.76,51.95,52.22,1.06,25.57,4.81,-8.45,-5.135371908,-4.97,-4.61909684,-4.02,7.41,21.32,51.12,0.828,21.51,3,-5.54,-1.060225847,-1.57,-0.543950779,-0.62,5.21,22.24,53.6,2.25,25.12,4.48,-4.19,-0.833896777,-1.35,-0.317621709,-0.4,4.89,-38.2,49.11,0.825,34.43,0.4,-13.73,-0.122164049,-0.5,0.394111019,0.45,3.68,27.3,44.74,2.018,49.67,-3.04,-22.95,-1.078446423,-1.49,-0.562171355,-0.54,2.76,12.85,47.76,3.42,39.49,-1.17,-15.33,-0.555967383,-0.07,-0.039692316,0.88,0.97,-32.46,46.09,-0.052,29.73,-0.25,0.78,-0.378151261,-1.25,0.138123807,-0.3,7.02,-4.25,52.1,6.747,33.15,4.11,-15.47
4/2/2020,0.026307842,-1.326094242,-4.41,-2.267748479,-5.26,-0.941654236,-0.85,3.98,-11.09,41.91,0.442,29.61,-5.96,-17.79,-4.920790143,-7.79,-3.594695901,-3.38,8.33,-31.01,49.19,1.149,21.95,1.82,-3.91,-4.452380952,-8.1,-3.12628671,-3.69,8.07,-25.42,40.88,0.437,22.32,-8.65,-23.38,-1.459893048,-4.92,-0.133798806,-0.51,2.92,-5.6,42.3,0.53,31.49,-4.41,-18.22,-3.183087355,-3.04,-1.856993113,1.37,5.28,-28.8,54.14,4.452,16.43,4.87,2.53,-1.307314651,-2.16,0.018779592,2.25,2.72,-19.42,50.61,0.825,17.15,2.4,-1.54,-1.246790211,-4.32,0.079304031,0.09,3.83,-17.68,45.58,2.611,34.7,-1.24,-17.92,-1.180952381,-4.14,0.145141861,0.27,6.28,-38.58,48.19,0.938,24.05,1.14,-12.04,-1.177003169,-4,0.149091073,0.41,8.45,10.28,46.95,0.648,21.2,-0.4,-9.17,-0.581699346,-3.55,0.744394896,0.86,4.56,-25.75,49.41,2.111,23.71,1.39,-7.53,-5.139085337,-8.55,-3.812991095,-4.14,6.99,28.16,40.57,0.642,33.74,-6.63,-20.83,-1.876724931,-6.81,-0.550630689,-2.4,4.55,2.57,37.74,1.831,48.86,-7.87,-27.72,-0.737962739,-4.5,0.588131503,-0.09,5.59,-2.54,42.48,3.19,38.56,-4.4,-18.79,0.03705076,0.63,1.363145002,5.04,0.37,95.46,49.76,-0.057,28.67,0.26,1.36,-1.912364577,-5.68,-0.586270335,-1.27,6.59,-16.79,46.85,6.143,31.72,-0.46,-19.84
4/3/2020,-0.008425487,2.321300453,1.72,1.909794458,1.67,-0.411505995,-0.05,3.37,-5.24,44.18,0.399,29.19,-3.49,-16.16,4.597936456,5.1,2.276636003,3.38,5.36,1.83,53.81,1.032,20.6,7.42,0.89,-5.521583351,-5.63,-7.842883804,-7.35,10.53,30.08,37.43,0.33,21.77,-11.52,-27.66,2.055979458,1.38,-0.265320995,-0.34,2.72,-16.75,44.32,0.537,30.61,-2.26,-16.81,1.647989453,1.65,-0.673311,-0.07,2.95,-31.31,56.4,4.127,15.79,6.64,4.02,0.903956585,0.58,-1.417343868,-1.14,1.96,5.35,51.7,0.686,15.99,3.01,-0.97,-0.571967316,-0.88,-2.893267769,-2.6,3.43,6.2,44.55,2.404,33.5,-1.28,-18.26,5.966075258,4.76,3.644774805,3.04,6.15,-5.89,52.67,0.907,22.71,6.23,-7.73,2.511520737,1.9,0.190220284,0.18,4.9,-14.38,49.06,0.512,20.93,1.92,-7.33,2.238904254,2.07,-0.082396199,0.35,3.3,-14.32,51.77,2.017,22.33,3.87,-5.59,2.170073177,0.62,-0.151227276,-1.1,5.66,-33.62,41.33,0.506,33.2,-4.61,-20.06,1.844494892,0.95,-0.476805561,-0.77,5.41,-19.34,39.11,1.744,48.2,-5.38,-26.56,2.708103919,2.31,0.386803466,0.59,3.21,-6.21,45.74,3.146,37.7,-1.22,-16.6,0.073746313,0.52,-2.24755414,-1.2,0.61,21.67,52.71,-0.05,27.96,0.6,1.82,6.591726619,6.01,4.270426166,4.29,6.96,6.7,52.19,6.128,30.18,6.4,-14.65
4/6/2020,0.026976863,-1.393423001,-1.53,-0.572487644,-1.44,0.820935356,0.09,2.79,-21.41,42.57,0.363,28.75,-3.98,-17.07,-3.957316113,-4.52,-2.563893112,-2.99,7.07,-0.29,49.18,0.805,19.58,3.04,-3.69,-5.788021798,5.62,-4.394598797,7.15,9.81,31.8,42.52,0.377,20.87,-4.47,-23.57,-1.889153009,-2.05,-0.495730008,-0.52,3.98,18.69,41.86,0.493,30.06,-3.42,-18.21,-1.524497469,-2.25,-0.131074468,-0.72,3.7,6.73,52.42,3.41,15,4.35,1.58,-0.238599796,-0.64,1.154823205,0.89,1.95,-16.15,50.34,0.548,14.92,2.34,-1.62,-1.889914095,-2.53,-0.496491094,-1,4.59,26.36,41.58,1.978,32.84,-2.97,-19.91,0.51996286,-0.4,1.91338586,1.13,4.43,-13.95,52.22,0.885,21.24,5.97,-7.98,-3.860045147,-4.27,-2.466622146,-2.74,7.37,1.13,44.56,0.319,21.15,-1.76,-11.12,-0.818826564,-0.92,0.574596437,0.61,3.37,-16.37,50.58,1.909,21.3,3.18,-6.4,-1.831501832,-0.72,-0.438078831,0.81,4.23,-4.17,40.66,0.415,32.7,-3.95,-20.32,-1.848203396,-2.83,-0.454780396,-1.3,5.16,-1.36,36.42,1.536,47.79,-6.43,-28.15,-1.024884352,-1.45,0.368538649,0.08,3.26,-23.85,43.97,3.007,36.82,-1.7,-17.45,0.110051357,0.55,1.503474358,2.08,0.4,-14.78,55.8,-0.034,27.56,0.92,2.31,-1.005747126,-1.18,0.387675874,0.35,5.12,-34.92,51,6.086,28.47,5.98,-15.27
4/7/2020,-0.031237727,3.303712581,7.33,4.611398964,8.72,1.307686383,1.39,5.23,54.26,53.81,0.631,26.91,4.48,-9.59,5.155931672,10.04,1.852219091,2.71,6.32,8.2,57.74,0.938,18.6,12.83,5.8,0.985915493,7.55,-2.317797088,0.22,4.46,-34.68,49.05,0.532,19.93,3.68,-17.88,4.298769772,8.11,0.995057191,0.78,5.37,14.33,53.08,0.709,27.99,4.55,-11.32,4.035923553,5.03,0.732210972,-2.3,4.89,67.08,59.38,3.582,14.89,9.08,6.47,3.181301653,4.77,-0.122410928,-2.56,3.43,58.54,59.21,0.673,14.9,6.66,2.99,3.371838901,7.37,0.06812632,0.04,4.65,9.15,51.73,2.313,31.16,4.31,-13.61,3.178527282,7.94,-0.125185298,0.61,4.54,34.74,59.65,1.091,20.86,13.54,-0.64,7.268623025,11.58,3.964910444,4.25,7.41,2.91,56.14,0.428,20.08,9.08,-0.78,3.08757485,7.44,-0.21613773,0.11,5.4,60.51,58.96,2.376,21.39,10.31,0.53,4.247286456,9.9,0.943573875,2.57,5.18,17.2,52.34,0.568,31.06,6.02,-12.19,3.245027042,7.66,-0.058685539,0.33,3.84,12.68,47.04,1.87,46.2,1.54,-22.18,2.722618678,6.72,-0.581093903,-0.61,7.11,38.77,53.21,3.702,34.56,5.1,-11.61,0.110011001,0.04,-3.19370158,-7.29,0.38,-45.19,56.01,-0.023,27.19,0.67,2.28,3.213672418,7.76,-0.090040163,0.43,3.9,31.14,57.9,6.845,26.62,14.08,-8.4
4/8/2020,0.012067901,-2.985612528,-0.33,-4.198670606,-1.16,-1.213058077,-0.83,4.9,0.89,52.17,0.842,25.37,3.8,-10.38,-6.588532276,-3.49,-3.602919747,-3.16,8.09,8.86,53.88,0.954,18.14,8.94,2.01,0.082568883,5.66,3.068181412,5.99,5.99,20.51,53.75,0.777,18.74,10.66,-13.39,-2.824733825,-0.03,0.160878704,0.3,3.6,-10.26,53.03,0.901,26.46,4.95,-11.08,-2.031578947,-2.02,0.954033581,-1.69,3.22,-13.57,55.57,3.389,14.86,6.75,4.1,-0.27316309,0.7,2.712449439,1.03,1.89,-11.2,60.42,0.825,15.37,7.07,3.6,-1.723033937,1.98,1.262578592,2.31,4.37,9.66,54.27,2.824,29.06,6.69,-11.52,-2.569235903,-0.05,0.416376626,0.28,5.62,28.17,59.58,1.253,21.25,13,-0.68,-2.859477124,0.08,0.126135404,0.41,6.26,24.69,56.23,0.558,19,8.9,-0.68,-3.598217608,-1.08,-0.612605079,-0.75,4.12,-5.72,57.28,2.666,21.81,9.03,-0.58,-4.223521767,0.09,-1.237909239,0.42,5.54,5.09,52.45,0.727,28.92,6.86,-11.89,-3.388090349,0.26,-0.402477821,0.59,5.53,18.32,47.4,2.226,43.72,2.8,-21.51,-3.311330732,0.1,-0.325718203,0.43,3.82,6.69,53.35,4.481,32.42,5.7,-11.22,0.148093299,-0.92,3.133705827,-0.59,0.37,25.54,49.4,-0.033,26.15,-0.43,1.29,-3.27299114,0.33,-0.287378611,0.66,5.12,9.92,58.2,7.453,25.54,14.7,-7.85
4/9/2020,-0.00420346,1.444132943,2.58,1.267412651,2.56,-0.176720292,-0.02,2.31,-18.46,55.46,1.001,23.93,6.66,-7.81,1.343912532,3.06,-0.100220412,0.48,2.75,-30.87,56.6,0.952,17.72,11.79,5.02,-0.967339438,0.62,-2.411472381,-1.96,4.35,-29.17,54.3,0.918,17.64,12.32,-12.91,0.313302942,2,-1.130830001,-0.58,2.55,-16.97,55.83,1.038,25.04,7.07,-9.04,-0.772706612,-0.31,-2.216839556,-2.89,2.72,-3.65,54.98,2.978,14.74,6.09,3.62,1.088570015,1.56,-0.355562929,-1.02,1.61,-22.41,63.15,0.946,15.91,8.1,5.08,1.769343066,3.23,0.325210122,0.65,4.17,-30.69,58.33,3.301,27.28,10,-8.29,-0.016952026,0.99,-1.461084969,-1.59,2.71,-35.57,60.59,1.282,21.48,13.32,0.33,1.497815685,2.59,0.053682742,0.01,2.85,-36.48,58.87,0.66,18,11.32,1.89,-0.325949176,1,-1.77008212,-1.58,1.92,-22.92,58.49,2.738,22.21,9.71,0.4,1.859641355,4.05,0.415508411,1.47,3.75,-10.13,57.13,0.87,26.93,11.31,-8.11,2.776810585,4.56,1.332677641,1.98,5.04,-8.29,53.52,2.613,41.3,7.87,-17.47,2.265263472,3.36,0.821130529,0.78,3.92,-23.35,57.91,5.162,30.51,9.25,-7.96,0.295530107,0.37,-1.148602836,-2.21,0.29,0.61,51.92,-0.034,25.29,-0.24,1.6,1.686334073,3.09,0.24220113,0.51,3.28,-34,61.09,7.77,24.53,17.85,-4.76
4/13/2020,0.014540466,#N/A,#N/A,#N/A,#N/A,#N/A,#N/A,#N/A,#N/A,#N/A,#N/A,#N/A,#N/A,#N/A,#N/A,#N/A,#N/A,#N/A,#N/A,#N/A,#N/A,#N/A,#N/A,#N/A,#N/A,#N/A,#N/A,#N/A,#N/A,#N/A,#N/A,#N/A,#N/A,#N/A,#N/A,#N/A,#N/A,#N/A,#N/A,#N/A,#N/A,#N/A,#N/A,#N/A,#N/A,#N/A,#N/A,#N/A,#N/A,#N/A,#N/A,#N/A,#N/A,#N/A,#N/A,#N/A,#N/A,#N/A,#N/A,#N/A,#N/A,#N/A,#N/A,#N/A,#N/A,#N/A,#N/A,#N/A,#N/A,#N/A,#N/A,#N/A,#N/A,#N/A,#N/A,#N/A,#N/A,#N/A,#N/A,#N/A,#N/A,#N/A,#N/A,#N/A,#N/A,#N/A,#N/A,#N/A,#N/A,#N/A,#N/A,#N/A,#N/A,#N/A,#N/A,#N/A,#N/A,#N/A,#N/A,#N/A,#N/A,#N/A,#N/A,#N/A,#N/A,#N/A,#N/A,#N/A,#N/A,#N/A,#N/A,#N/A,#N/A,#N/A,#N/A,#N/A,#N/A,#N/A,#N/A,#N/A,#N/A,#N/A,#N/A,#N/A,#N/A,#N/A,#N/A,#N/A,#N/A,#N/A,#N/A,#N/A,#N/A,#N/A,#N/A,#N/A,#N/A,#N/A,#N/A,#N/A,#N/A,#N/A,#N/A,#N/A,#N/A,#N/A,#N/A,#N/A,#N/A,#N/A,#N/A,#N/A,#N/A,#N/A,#N/A,#N/A,#N/A,#N/A,#N/A,#N/A,#N/A,#N/A,#N/A,#N/A,#N/A,#N/A,#N/A,#N/A
4/14/2020,0.023392157,0.796413249,0.48,1.841153889,1.96,1.04474064,1.48,2.88,-18.75,59.11,1.205,21.99,9.21,-4.87,3.569372481,2.62,2.772959232,2.14,4.89,-23.33,57.4,0.833,17.24,11.24,5.89,10.30068117,13.6,9.504267922,13.12,10.98,69.35,67.98,1.42,17.44,31.65,2.84,0.693031641,0.5,-0.103381608,0.02,2.7,-19.3,56.79,1.115,22.52,7.27,-7.98,6.84333845,7.01,6.046925201,6.53,8.27,57.69,65.03,3.159,15.3,11.56,10.31,6.317156863,6.17,5.520743614,5.69,6.55,45.61,72.49,1.27,18.42,12.53,11.1,0.644901249,-0.23,-0.151512,-0.71,3.18,-15.92,58.54,3.61,24.25,9.45,-7.28,3.765246597,2.73,2.968833348,2.25,3.75,-42.19,58.82,1.066,20.38,11.09,-0.08,5.09593563,5.29,4.299522381,4.81,5.58,-19.7,63.17,0.798,17.4,14.09,6.28,0.70581077,0.22,-0.090602479,-0.26,1.98,-17.05,58.82,2.467,22.86,8.77,0.58,1.441594234,1.18,0.645180985,0.7,3.8,-74.33,61.59,1.113,24.36,14.21,-4.06,-2.018722019,-2.71,-2.815135268,-3.19,3.65,-42.39,54.81,3.318,35.96,9.34,-14.97,-0.534026124,-0.91,-1.330439373,-1.39,2.21,-39.8,58.05,5.804,27.52,9.11,-6.88,-0.111358575,-0.15,-0.907771824,-0.63,0.33,-29.5,45.74,-0.054,22.76,-1.12,0.62,2.532544379,2.21,1.73613113,1.73,3.35,-25.18,59.59,7.1,23.27,15.71,-4.63
4/15/2020,0.008395961,1.945719071,3.95,2.517857143,5.05,0.572138072,1.1,3.55,48.82,65.35,1.435,22.16,13.7,0.1,3.254545455,5.23,1.308826384,1.28,4.03,33.27,62.35,0.991,17.72,14.98,11.16,1.562298811,9.05,-0.38342026,5.1,6.97,36.04,73.24,1.919,18.89,39.82,11.58,1.938815668,4.24,-0.006903403,0.29,3.56,41.99,63.21,1.25,22.41,10.92,-3.86,4.037735849,4.24,2.092016778,0.29,5.56,-0.96,69.94,4.716,17.09,14.45,14.59,3.765104728,5.28,1.819385657,1.33,4.63,20.4,78.1,1.767,20.95,16.67,16.56,-0.450617819,1.93,-2.396336889,-2.02,2.58,8.56,61.39,3.79,23.44,10.45,-5.13,1.076752347,3.34,-0.868966724,-0.61,2.29,10.42,62.55,1.101,20.54,13.08,3.23,5.159375897,7.83,3.213656827,3.88,5.52,32.69,70.01,1.071,18.46,20.83,14.4,2.781065089,4.95,0.835346018,1,3.31,26.18,65.47,2.702,23.89,12.74,5.47,1.327433628,5.29,-0.618285443,1.34,2.89,57.15,67.19,1.298,24.04,18.25,1.13,-0.879741727,2.03,-2.825460798,-1.92,2.92,-12.42,57.42,3.425,33.46,10.6,-12.77,1.000071179,2.95,-0.945647891,-1,3.31,16.75,62.3,6.024,26.6,11.36,-3.88,-0.223713647,-0.56,-2.169432717,-4.51,0.32,105.36,41.95,-0.066,21.26,-1.71,0.02,0.567413197,2.97,-1.378305874,-0.98,2.26,-10.23,62.68,7.054,23.08,17.06,-1.57
4/16/2020,0.007144298,0.445430567,-1.44,0.718838527,-0.91,0.27340796,0.53,2,-32.74,63.31,1.502,22.32,11.97,-0.62,1.313131313,-1.1,0.867700746,0.34,3.13,-31.04,60.63,1.01,18.17,12.28,9.72,-1.640295391,2.81,-2.085725958,4.25,5.91,-22.89,74.8,2.221,20.34,39.63,14.06,1.353553681,-0.53,0.908123114,0.91,3.17,-32.33,61.87,1.278,22.3,9.64,-4.1,3.329297821,3.19,2.883867254,4.63,5.33,17.1,73.22,6.374,19.32,16.38,17.78,2.21466284,1.07,1.769232273,2.51,3.83,-15.09,79.11,2.095,23.53,16.42,17.36,1.018057898,-0.67,0.572627331,0.77,3.03,-17.08,59.77,3.601,22.2,8.78,-5.39,-1.45631068,-2.95,-1.901741247,-1.51,2.45,-11.03,57.28,0.973,20.19,8.85,0.2,2.345058626,0.11,1.89962806,1.55,3.93,-1.75,70.1,1.214,19.55,19.24,14.37,0.397196262,-1.05,-0.048234305,0.39,2.52,-22.57,62.96,2.67,24.84,10.65,4.32,0.161681487,-1.63,-0.283749079,-0.19,2.89,-10.35,63.84,1.307,23.42,14.8,-0.38,-0.025460409,-4.08,-0.470890976,-2.64,2.08,-1.4,50.74,3.05,31.74,5.64,-15.81,0.068451201,-2.12,-0.376979365,-0.68,3.05,-9.25,57.5,5.71,25.74,8.46,-5.63,-0.33271719,0.75,-0.778147757,2.19,0.67,-15,48.29,-0.059,20.44,-0.96,0.73,-1.363984674,-3.81,-1.809415241,-2.37,2.39,12.25,56.35,6.18,22.42,11.19,-5.01
4/17/2020,-0.008414476,0.628014025,1.66,-0.240100216,0.79,-0.868114241,-0.87,2.04,19.8,64.38,1.509,22.59,11.97,0.35,2.654312387,4.94,2.026298362,3.28,4.22,103.64,65.37,1.175,19.29,15.69,14.79,3.943217006,2.11,3.315202981,0.45,7.08,-12.38,76,2.34,21.75,37.52,15.86,-0.834314418,0.08,-1.462328443,-1.58,2.88,50.63,62,1.243,22.2,8.94,-3.76,0.496567506,2.91,-0.131446519,1.25,4.08,18.93,75.96,7.959,21.79,17.78,20.65,2.650895141,4.36,2.022881116,2.7,5.23,75.32,82.75,2.51,26.5,19.75,21.94,-0.955324529,-0.41,-1.583338554,-2.07,3.14,35.41,58.74,3.299,21.01,7.37,-5.39,1.979533635,3.26,1.35151961,1.6,3.54,6.97,61.18,0.927,20.22,11.05,3.46,1.769120801,3.56,1.141106776,1.9,4.3,23.02,73.12,1.375,21.14,21.15,18.2,1.572002295,3,0.94398827,1.34,2.47,23.3,66.95,2.788,26.07,12.64,7.34,1.362179487,2.1,0.734165462,0.44,3.14,-15.28,66.21,1.311,23.1,15.09,1.82,-0.999237869,-0.76,-1.627251894,-2.42,3.31,39.25,49.6,2.638,30.46,4.05,-15.94,-0.017911517,0.48,-0.645925542,-1.18,1.53,4.12,58.29,5.257,24.94,8.16,-4.9,0.222057735,0.45,-0.40595629,-1.21,0.7,26.06,51.8,-0.045,19.97,-0.45,1.13,-1.325641809,0.33,-1.953655834,-1.33,2.96,3.74,56.76,5.324,21.64,9.42,-4.41
4/20/2020,-0.003640429,-0.200058148,1.38,-0.66388001,-1.36,-0.463821861,-2.74,3.57,36.99,60.99,1.385,22.27,9.64,-0.81,-1.906040268,-0.81,-1.70598212,-2.19,4.08,-27.69,63.9,1.189,20.33,13,13.55,-2.381262224,1.16,-2.181204076,-0.22,3.62,-36.45,76.69,2.375,23.21,35.06,16.65,-0.124528155,1.57,0.075529993,0.19,1.81,-22.6,64.69,1.234,22.39,9.85,-2,-1.865429234,-3.69,-1.665371086,-5.07,4.09,-21.78,66.14,7.392,22.77,12.06,15.68,0.11254758,-1.38,0.312605728,-2.76,3.54,-34.13,77.78,2.501,28.91,16.66,19.76,0.022321429,1.7,0.222379577,0.32,2.02,-11.1,61.78,3.163,20.17,8.33,-3.42,-2.67655595,-0.71,-2.476497801,-2.09,3.82,12.08,59.82,0.867,20.59,8.83,2.8,-1.307759372,-0.61,-1.107701224,-1.99,3.9,-25.41,71.68,1.378,22.58,18.3,17.26,-0.501392758,0.88,-0.301334609,-0.5,2.31,4.53,68.11,2.846,27.45,12.35,8.14,0.287852619,3.28,0.487910768,1.9,2.01,43.37,69.74,1.36,23.23,16.95,5.21,0.131255127,4.41,0.331313276,3.03,2.18,-3.99,55.96,2.613,28.49,7.76,-11.76,0.441516574,2.7,0.641574723,1.32,1.71,16.1,62.66,5.206,24.81,10.1,-2.08,-0.037009623,-0.26,0.163048526,-1.64,0.22,-66.21,49.62,-0.039,19.48,-0.51,0.82,1.010561507,2.94,1.210619656,1.56,3.19,26.74,60.4,4.937,21.27,10.96,-1.31
4/21/2020,-0.022741795,0.085930942,-1.03,-0.366972477,-2.08,-0.452903419,-1.05,1.74,-40.56,56.05,1.172,21.97,6.38,-2.63,-0.066146776,-1.8,-0.152077718,-0.77,2.87,-17.2,60.55,1.053,21.14,9.25,11.25,1.864199629,-1,1.778268687,0.03,7.15,11.6,74.61,2.21,23.74,30,14.97,-0.345397325,-1.3,-0.431328267,-0.27,1.6,-17.66,60.68,1.126,22.27,7.53,-3,0.533124986,3.44,0.447194044,4.47,3.18,-2.01,70,7.472,24.08,14.33,19.18,0.153141279,0.78,0.067210337,1.81,2.46,-28.22,78.58,2.459,31.35,16.02,20.19,0.46784285,-0.56,0.381911908,0.47,2.09,-24.8,60.13,2.907,19.42,6.81,-3.6,-0.167006866,-1.95,-0.252937808,-0.92,1.94,-3.82,56.03,0.693,20.49,5.43,0.91,1.768488746,0.65,1.682557804,1.68,4.88,-6.41,72.32,1.328,24.11,16.95,17.82,-0.888863726,-1.98,-0.974794668,-0.95,2.15,-31.57,62.59,2.57,28.53,8.83,5.91,2.246320682,1.03,2.16038974,2.06,5.41,-14.4,70.84,1.359,23.76,16.21,6.34,0.861276026,-1.18,0.775345085,-0.15,3.2,-20.93,53.85,2.446,26.83,5.59,-12.3,-0.360921411,-1.76,-0.446852353,-0.73,1.93,-32.18,58.13,4.75,24.56,7.07,-3.53,0.11082379,0.33,0.024892848,1.36,0.33,47.27,52.48,-0.03,19.2,-0.01,1.11,-0.661538462,-2.86,-0.747469403,-1.83,2.85,-30.96,55.22,4.149,20.84,6.32,-3.77
4/22/2020,0.00737932,-2.333852204,-3.48,-2.863037498,-3.09,-0.529185295,0.39,4.4,41.46,49.55,0.848,20.58,2.23,-5.36,-4.534022883,-6.11,-2.200170679,-2.63,6.55,64.69,50.72,0.65,20.35,1.47,4.33,-5.944361239,-7.99,-3.610509035,-4.51,11.58,37.94,60.23,1.805,23.42,17.03,5.46,-2.458700882,-3.97,-0.124848679,-0.49,3.66,34.15,50.23,0.862,20.82,2.57,-6.55,-2.459698271,-0.84,-0.125846067,2.64,4.93,87.49,67.84,6.865,24.94,12.29,17.75,-3.661741034,-2.74,-1.32788883,0.74,6.38,31.35,68.86,2.07,31.86,11.69,16.44,-2.539229672,-4.17,-0.205377468,-0.69,4.12,57.55,49.26,2.155,18.49,1.66,-7.23,-3.011529857,-4.77,-0.677677654,-1.29,4.74,-4.15,47.96,0.381,19.17,-0.2,-3.57,-6.994727592,-7.11,-4.660875389,-3.63,11.94,72.15,56.76,1,23.44,7.39,9.34,-3.273775216,-4.14,-0.939923013,-0.66,4.5,55.65,52.87,1.786,27.75,3.31,1.5,-2.654356607,-4.15,-0.320504403,-0.67,4.96,-15.3,60.87,1.171,23.66,9.91,2,0.272525975,-2.39,2.606378179,1.09,2.34,-13.77,49.68,2.061,25.7,2.27,-13.9,-1.333429697,-3.04,1.000422507,0.44,2.2,26.63,51.17,3.678,23.21,2.84,-6.16,-0.220588235,0.15,2.113263968,3.63,0.44,26.61,53.78,-0.018,19.26,0.29,1.21,-2.714487744,-4.12,-0.38063554,-0.64,3.23,23.82,48.73,2.752,19.52,0.82,-7.29
4/23/2020,-0.010207603,0.721200301,2.81,0.910054457,2.88,0.188854156,0.07,2.06,-36.77,54.81,0.692,19.35,4.59,-2.45,3.217544999,6.17,2.496344698,3.36,4.36,-36.27,57.92,0.525,19.8,6.99,10.44,3.99578113,6.61,3.274580829,3.8,6.19,-30.59,65.81,1.538,23.12,22.4,11.93,1.418661785,3.85,0.697461484,1.04,3.45,-4.27,57.77,0.781,20.12,5.95,-2.74,-1.932631334,-2.86,-2.653831635,-5.67,4.75,-9.5,60.76,5.179,24.87,8.18,13.97,-0.23258759,1.52,-0.953787891,-1.29,1.82,-44.53,71.01,1.766,32.33,12.25,17.69,2.146259456,6.72,1.425059155,3.91,3.64,32.29,61.27,2.253,17.85,7.81,-0.7,3.1405526,6.64,2.419352299,3.83,4.48,-9.7,57.07,0.337,18.58,5.71,3,1.83937352,5.67,1.118173219,2.86,3.24,-49.41,63.26,0.843,22.82,12.37,15.28,1.242779625,3.4,0.521579324,0.59,1.83,-39.76,58.51,1.438,27.07,6,4.83,0.498466258,3.58,-0.222734043,0.77,2.63,-27.16,65.35,1.079,23.69,12.58,5.63,-0.955784574,1.21,-1.676984876,-1.6,1.86,-22.83,51.74,1.856,24.31,3.06,-12.38,0.269444943,2.22,-0.451755358,-0.59,1.47,-26.19,55.38,3.147,22.24,4.42,-3.83,0.442804428,0.29,-0.278395873,-2.52,0.48,-42.35,56.42,-0.007,19.34,0.66,1.46,2.041056639,4.97,1.319856338,2.16,4.42,20.42,55.47,2.298,18.81,4.83,-2.38
4/24/2020,0.013547474,-0.399702656,-0.01,-0.304491246,-0.39,0.09521141,-0.38,2.5,7.86,53.94,0.575,18.54,3.61,-2.58,-1.330600334,-0.75,-0.930897678,-0.74,3.57,-10.85,56.74,0.434,19.61,5.44,9.36,-3.019582862,-3.62,-2.619880206,-3.61,4.37,-6.57,60.33,1.238,22.84,16.36,7.5,0.37434627,1.04,0.774048926,1.05,2.17,-25.96,59.66,0.737,19.62,6.27,-1.51,1.774555169,1.25,2.174257825,1.26,4.49,-33.9,62.61,4.068,25.02,8.37,15,-0.022083517,1.52,0.377619139,1.53,1.76,20.73,73.11,1.549,32.98,12.58,18.94,0.570404172,1.56,0.970106828,1.57,2.11,-35.19,63.64,2.409,17.49,8.56,1.15,-1.061610263,-1.76,-0.661907607,-1.75,2.18,38.41,54.09,0.258,18.03,3.14,1.42,-1.3239188,-0.04,-0.924216144,-0.03,2.94,8.84,63.19,0.722,22.59,11.07,15.02,-1.545000287,-1.21,-1.145297631,-1.2,2.42,-4.69,55.78,1.066,26.58,3.94,3.5,-0.801068091,-0.78,-0.401365435,-0.77,2.97,26.3,63.52,0.97,23.95,10.72,4.83,0.191491133,0.98,0.591193789,0.99,2.68,58.21,53.47,1.742,22.66,3.61,-11.04,-0.502691718,-0.01,-0.102989062,0,1.86,11.69,55.36,2.733,21.62,3.78,-3.58,-0.03671072,0.04,0.362991936,0.05,0.59,57.34,56.76,0,19.5,0.73,1.45,-0.507204611,-0.4,-0.107501955,-0.39,2.58,-39.06,54.8,2.018,18.35,3.55,-2.41
4/27/2020,-0.005610217,1.224373042,1.65,2.081529582,2.89,0.857156539,1.24,2.12,2.5,59.25,0.546,17.9,6.11,0.47,2.11212976,1.96,0.887756718,0.31,3.13,-15.57,59.16,0.358,19.23,6.87,11.2,2.017418169,2.77,0.793045127,1.12,4.49,1.01,62.86,1.002,22.46,17.66,10.07,1.438346932,0.24,0.21397389,-1.41,2.42,7.49,60.12,0.652,18.74,6,-1.05,-0.002352941,-0.4,-1.226725983,-2.05,2.66,-37.46,61.56,2.723,24.92,7.09,14.12,-0.280513033,0.45,-1.504886075,-1.2,1.59,-23.47,73.74,1.302,33.58,11.9,18.93,3.733013153,2.67,2.508640111,1.02,5.04,35.49,67.48,2.553,17.51,10.59,4.16,5.444839858,0.37,4.220466815,-1.28,5.57,59.16,54.63,0.139,17,3.19,2.01,1.960072595,0.5,0.735699553,-1.15,4.2,6.79,63.82,0.57,21.85,10.68,15.26,1.447169592,1.83,0.22279655,0.18,2.21,6.31,58.95,0.834,26.08,5.25,5.32,1.298205422,2.02,0.07383238,0.37,3.07,-24.08,66.21,0.871,24.09,12.11,6.94,0.724101045,1.72,-0.500271997,0.07,2.64,-29.37,56.54,1.686,21.04,5.14,-9.04,0.797919709,1.39,-0.426453333,-0.26,1.84,-17.98,58.21,2.448,21.01,4.8,-1.98,-0.110294118,-0.22,-1.33466716,-1.87,0.24,-43.42,53.93,0.002,19.65,0.47,1.18,1.924483276,2.27,0.700110234,0.62,2.34,9.56,58.01,1.91,17.93,5.44,0.14
4/28/2020,-0.023540622,0.139711263,1.11,0.486160397,0.07,0.346449134,-1.04,1.62,-7.66,59.38,0.515,17.44,5.48,0.79,0.708498593,2.59,0.56878733,1.48,3.2,34.61,62.3,0.439,19.68,8.74,13.7,8.288933176,10.15,8.149221913,9.04,8.07,52.46,70.7,1.052,23.12,26.68,20.76,-1.552469136,-0.27,-1.692180399,-1.38,2.13,-2.67,59.27,0.586,18.26,5,-1.08,-0.851764706,-0.85,-0.991475969,-1.96,1.94,-27.83,59.25,1.578,24.91,5.33,12.78,-2.750491159,-1.42,-2.890202423,-2.53,3.45,46.44,68.09,0.981,34.32,9.1,16.76,-2.84470698,-1.35,-2.984418243,-2.46,3.38,0.6,63.6,2.58,17.86,8.13,2.96,-0.400274665,0.35,-0.539985929,-0.76,2.43,-48.5,55.2,0.098,15.88,2.92,2.57,-1.653899721,0.55,-1.793610985,-0.56,3.1,-14.44,64.56,0.483,21.55,10.21,15.59,-1.438360043,-0.29,-1.578071306,-1.4,2.07,-3.48,58.21,0.673,25.94,4.18,5,2.903643425,4.86,2.763932162,3.75,4.81,283.88,71.88,0.918,25.07,16.11,12.04,2.670431626,3.96,2.530720362,2.85,3.6,43.26,62.9,1.881,20.45,8.62,-5.01,0.676907969,1.44,0.537196705,0.33,1.27,-8.85,61.11,2.438,20.89,5.66,-0.34,0.14781966,-0.26,0.008108397,-1.37,0.3,158.9,50.65,-0.002,19.27,0.14,0.87,1.550974087,1.37,1.411262824,0.26,2.56,-29.35,59.97,2.021,17.97,6.1,1.82
4/29/2020,0.012881089,-2.469498101,-1.4,-2.280061737,-1.62,0.189436364,-0.22,2.74,-6.67,54.88,0.426,16.81,3.31,-0.66,-3.841584158,-1.93,-1.372086057,-0.53,4.48,-8.74,58.48,0.393,19.84,6.15,11.12,-3.333163659,-3.71,-0.863665558,-2.31,6.28,-25.01,64.6,0.974,23.8,19.45,15.93,-4.212961885,-3.31,-1.743463784,-1.91,4.53,63.86,49.66,0.408,17,1.16,-4.11,-3.84771066,-4.16,-1.378212559,-2.76,4.48,59.55,49.26,-0.353,23.69,0.53,7.8,-2.445933983,-2.61,0.023564118,-1.21,2.92,-8.01,58.99,0.478,34.01,5.41,13.43,-3.047810877,-2.45,-0.578312776,-1.05,3.63,-31.13,57.08,2.152,17.47,4.97,0.62,-2.067011169,-1.21,0.402486932,0.19,3.34,2.35,52.7,0.038,14.8,1.38,1.48,-2.88663401,-1.73,-0.417135909,-0.33,3.69,17.73,60.22,0.325,20.86,7.5,13.26,-3.217680142,-2.44,-0.748182041,-1.04,3.7,1.74,52.04,0.285,24.99,1.35,2.45,-4.724131853,-2.86,-2.254633752,-1.46,6.2,-53.15,64.47,0.836,25.78,11.69,8.75,-1.532946919,1.45,0.936551182,2.85,3.24,21.17,65.06,2.084,20.37,9.54,-3.25,-1.817744485,-0.46,0.651753616,0.94,2.1,35.19,59.62,2.315,21.07,4.71,-0.59,0.33358043,-0.11,2.803078531,1.29,0.41,-51.86,49.23,-0.008,18.55,-0.01,0.71,-3.467765461,-1.39,-0.99826736,0.01,4.64,9.89,56.95,1.917,18.35,4.12,0.66
4/30/2020,-0.007672634,1.272450498,3.57,1.053629755,3.28,-0.218820744,-0.29,2.01,25.91,61.36,0.453,16.6,6.05,2.73,0.569464569,2.44,-0.70298593,-1.13,2.29,-12.48,61.72,0.374,19.99,8.05,13.41,1.308515889,4.08,0.036065391,0.51,2.5,7.15,67.86,0.945,24.44,21.72,20.6,0.001490913,8.74,-1.270959585,5.17,2.58,45,65.52,0.575,17.12,9.2,4.47,3.093635021,2,1.821184523,-1.57,5.4,-2.91,53.28,-1.674,22.01,2.07,9.68,1.83261016,2.53,0.560159662,-1.04,3.45,-11.05,64.05,0.198,33.89,7.05,15.96,1.707432043,6.17,0.434981545,2.6,3.56,129.76,66.46,2.355,17.87,10.58,6.92,3.97039031,5.19,2.697939811,1.62,4.39,15.02,61.02,0.132,14.47,5.94,6.83,-1.595452045,-3.33,-2.867902543,-6.9,3.95,50.98,52.78,0.047,19.53,3.1,9.27,2.430435285,4.49,1.157984786,0.92,3.27,52.24,60.42,0.305,24.41,5.28,7.01,1.687915245,4.77,0.415464747,1.2,4,13.15,70.04,0.832,26.48,15.51,13.84,1.475765975,4.92,0.203315477,1.35,3.67,6.4,71.43,2.478,21.02,13.91,1.85,0.576270024,2.62,-0.696180474,-0.95,1.52,12.66,64.98,2.477,21.55,6.76,2.2,-0.074128984,-0.41,-1.346579483,-3.98,0.37,-25.64,44.17,-0.017,17.75,-0.44,0.27,1.822340269,4.26,0.54988977,0.69,2.81,58.74,63.19,2.171,18.74,7.73,5.15
5/1/2020,-0.007315476,-0.240825675,-0.28,1.324320596,2.11,1.565146271,2.39,2.1,33.35,65.06,0.525,16.85,7.24,5.05,-1.354335981,-2.07,-1.113510306,-1.79,2.31,-0.86,57.39,0.254,19.93,4.88,10.74,-8.572475957,-2.33,-8.331650282,-2.05,13.6,75.58,63.97,0.863,25.85,16.23,18.11,1.794879536,0.54,2.035705211,0.82,2.25,-29.65,66.31,0.647,17.17,8.71,5.16,2.325071288,1.93,2.565896963,2.21,3.92,-17.94,57.02,-1.945,20.92,3.33,11.55,2.238164507,4.27,2.478990182,4.55,3.19,107.65,70.92,0.258,34.43,10.21,20.49,-1.068045621,5.42,-0.827219946,5.7,3.97,0.6,72.66,3.061,19.23,15.09,12.77,-2.259535317,-2.94,-2.018709642,-2.66,2.98,-13.7,54.64,0.114,14.16,2.12,3.85,-1.946472019,-2.37,-1.705646344,-2.09,4.31,-40.85,48.24,-0.214,18.55,-0.18,6.58,-0.438888889,1,-0.198063214,1.28,2.33,5.05,62.13,0.434,24.27,5.49,8.1,-2.450634697,-2.3,-2.209809022,-2.02,3.43,-22.73,64.39,0.739,27.16,11.15,11.27,-1.205458681,-3.8,-0.964633006,-3.52,2.15,-13.38,61.36,2.348,21.23,8.5,-1.59,-0.42165164,-0.93,-0.180825965,-0.65,1.63,2.94,61.66,2.287,21.71,4.91,1.47,-0.667408231,-0.63,-0.426582556,-0.35,0.9,135.02,37.55,-0.031,16.76,-1.03,-0.38,-0.698278068,-1.59,-0.457452393,-1.31,1.93,-19.02,59.46,1.986,19.06,5.03,3.74
5/4/2020,0.016768645,-0.879362399,-3.2,0.985152838,-1.61,1.864515237,1.59,4.55,31.44,60.08,0.505,17.47,4.67,3.56,-0.552136452,-3.25,0.327225947,-0.05,2.85,-9,51.25,-0.015,18.89,0.97,6.93,-7.109806033,-10.3,-6.230443634,-7.1,12.79,14.26,50.16,0.38,25.29,2.38,6.03,-0.593902898,-2.08,0.285459501,1.12,3.11,-22.34,60.34,0.598,16.93,5.6,3.15,0.040953987,-1.09,0.920316386,2.11,3.91,4.35,54.24,-2.191,20.1,1.64,10.11,-2.172201301,-7.6,-1.292838902,-4.4,4.56,2.5,50.86,-0.269,32.96,1.01,11.11,0.33234127,-1.19,1.211703669,2.01,4.07,-34.21,69.36,3.156,20.13,12.32,11.5,-2.311745708,-4.18,-1.432383309,-0.98,3.5,-19.35,47.1,-0.067,13.43,-2.42,-0.21,-2.330135109,-4.79,-1.45077271,-1.59,5.73,6.13,40.57,-0.552,18.57,-5.45,1.47,-0.699658703,-2.59,0.179703696,0.61,2.65,-26.92,55.2,0.243,23.66,2.18,5.35,-2.675585284,-5.33,-1.796222885,-2.13,4.89,11.55,53.51,0.432,25.95,3.98,5.44,-1.580810067,-3.97,-0.701447668,-0.77,3.33,-2.67,53.02,1.783,20.09,3.44,-4.99,-0.883249798,-2.65,-0.0038874,0.55,3.23,2.89,53.17,1.622,20.84,1.57,-0.93,0.111982083,0.11,0.991344482,3.31,0.37,-40.34,39.33,-0.04,15.91,-0.86,-0.29,-2.368421053,-4.39,-1.489058654,-1.19,3.72,14.78,50.48,1.076,18.21,-0.01,-0.45
5/5/2020,0.001065919,1.81629676,1.23,1.379811184,1.41,-0.436485577,0.18,2.51,-44.49,62.82,0.47,18.04,5.17,5.23,3.704500142,3.01,1.888203382,1.78,3.76,-7.17,55.94,-0.126,18.14,3.14,9.89,8.586382729,8.54,6.770085969,7.31,8.41,-40.87,57.7,0.162,24.77,8.88,15.04,1.419475169,0.47,-0.396821592,-0.76,2.16,-27.43,61.2,0.509,16.4,5.13,3.83,2.482167648,3.1,0.665870888,1.87,3.19,-6.03,60.28,-1.902,19.37,3.94,13.22,2.641842243,1.31,0.825545483,0.08,3.05,-50.21,53.21,-0.618,31.57,1.42,12.33,2.527472527,1.48,0.711175767,0.25,3.49,-36.71,71.14,3.082,20.93,12.39,13.21,1.523109244,0.9,-0.293187517,-0.33,3.04,-10.56,48.73,-0.207,13.12,-1.86,0.96,5.510388437,5.37,3.694091677,4.14,5.48,-10.02,50,-0.649,18.32,-1.3,6.81,2.49297954,2.45,0.67668278,1.22,2.91,-22.85,59.79,0.211,23.15,3.92,7.98,5.028040998,3.68,3.211744237,2.45,5.12,-47.2,58.6,0.26,24.77,6.32,9.4,1.682847896,0.43,-0.133448864,-0.8,2.9,-32.83,53.75,1.31,18.85,2.99,-4.08,1.008050153,0.28,-0.808246607,-0.95,1.68,-35.65,53.88,0.97,19.72,1.21,-0.36,0.148533234,0.56,-1.667763526,-0.67,0.26,-8.72,47.64,-0.034,15.03,-0.25,0.25,1.176652135,0.99,-0.639644625,-0.24,2.71,-36.48,52.21,0.355,17.14,0.43,0.9
5/6/2020,-0.003090975,-0.006129635,1.13,0.847285298,1.5,0.853414933,0.37,2.2,9.54,65.63,0.51,19.18,6.08,6.95,-0.585507835,0.84,-0.5793782,-0.29,3.06,15.13,57.26,-0.118,18.04,3.54,10.52,-2.732433474,0.92,-2.726303839,-0.21,4.78,-12.32,58.52,0.111,24.8,7.94,16.05,0.985858646,1.83,0.991988281,0.7,2.7,8.85,64.54,0.523,16.77,6.37,5.91,-0.672428109,-0.81,-0.666298474,-1.94,2.22,-19.81,57.99,-1.724,18.83,2.55,12.02,-0.948717949,0.08,-0.942588314,-1.05,1.89,-34.4,53.36,-0.791,30.52,0.79,12.2,0.024152256,0.88,0.030281891,-0.25,1.87,8.44,72.23,3.083,22.01,12.11,14.26,-0.068038782,1.31,-0.061909147,0.18,1.62,-9.99,51.17,-0.217,12.32,-0.6,2.5,-2.320793562,-0.7,-2.314663927,-1.83,4.25,-10.01,48.81,-0.668,17.71,-2.42,5.97,0.077510796,1.07,0.083640431,-0.06,2.07,19.87,61.75,0.374,23.37,4.56,9.18,-0.846389339,1.38,-0.840259704,0.25,2.29,38.62,60.46,0.223,24.3,6.66,10.94,-1.108768642,0.77,-1.102639007,-0.36,3.02,9.41,55.14,1.097,18.33,3.2,-2.87,-0.156991348,0.92,-0.150861713,-0.21,1.93,-1.57,56.37,0.722,19.28,1.75,0.83,-0.037037037,0.07,-0.030907402,-1.06,0.48,393.55,48.68,-0.027,14.45,-0.12,0.3,-0.274661662,1,-0.268532027,-0.13,1.97,54.15,54.02,0.161,16.71,1.19,2.24
5/7/2020,0.00148523,-0.228852806,0.51,0.056579911,1.03,0.285432717,0.52,1.45,-2.72,67.54,0.548,20.4,6.39,8.19,0.289630553,1.38,0.518483359,0.87,2.21,-11.53,59.48,-0.073,18.07,4.26,11.8,0.782935748,1.87,1.011788555,1.36,3.67,-34.06,60.27,0.066,24.81,8.16,18.18,-1.056775037,-0.28,-0.827922231,-0.79,1.77,-25.76,63.58,0.494,17.11,5.4,5.84,1.155369206,2.26,1.384222012,1.75,3.08,6.5,62.38,-1.134,18.82,4.08,14.23,0.936705818,1.44,1.165558624,0.93,1.59,-2.33,56.23,-0.837,29.61,1.5,13.62,0.168172208,0.68,0.397025015,0.17,2.37,4.7,73.1,2.938,23.11,11.67,15.08,0.237127371,0.73,0.465980178,0.22,1.71,4.6,52.59,-0.188,11.57,0.07,3.46,-0.495993895,-0.06,-0.267141089,-0.57,2.74,-14.53,48.71,-0.657,17.15,-2.9,5.91,0.252636204,0.98,0.48148901,0.47,1.41,-11.72,63.57,0.51,23.65,5.01,10.32,0,0.49,0.228852806,-0.02,1.99,-3.63,61.17,0.175,23.86,6.04,11.54,-1.388344184,-0.73,-1.159491378,-1.24,2.55,-4.62,53.43,0.824,17.64,1.91,-3.09,-1.315789474,-0.68,-1.086936667,-1.19,1.65,-7.85,53.97,0.422,18.87,0.72,0.45,0.184706317,0.48,0.413559123,-0.03,0.33,-84.73,55.13,-0.014,14.33,0.35,0.76,-1.546603063,-0.26,-1.317750257,-0.77,2.6,-13.5,53.42,-0.013,16.44,0.72,2.3
5/8/2020,0.003265928,0.065524227,1.41,0.171492646,1.03,0.105968418,-0.38,1.05,-19.05,69.44,0.576,21.68,6.78,9.41,0.491133232,2.38,0.425609005,0.97,2,15.54,63.2,0.038,18.46,6.03,14.2,0.364187285,-0.32,0.298663058,-1.73,3.08,3.64,59.77,0.019,24.91,6.11,17.78,0.484647935,1.87,0.419123708,0.46,1.63,15.17,67.16,0.49,17.55,6.7,8.01,-0.082400604,0.52,-0.147924832,-0.89,1.88,-15.17,63.38,-0.71,18.82,3.81,14.51,-0.301922704,0.7,-0.367446932,-0.71,1.39,8.94,57.64,-0.809,28.95,1.49,14.21,0.047357454,1.34,-0.018166773,-0.07,1.21,-30.68,74.85,2.762,24.13,12.05,16.58,-1.268146171,-0.02,-1.333670398,-1.43,1.99,-17.45,52.55,-0.166,10.93,0.03,3.69,-1.851501984,-0.4,-1.917026211,-1.81,2.59,1.7,47.91,-0.649,16.72,-3.57,5.55,-0.309496661,0.58,-0.375020888,-0.83,1.07,-11.9,64.69,0.582,23.96,5.06,10.97,0.909252986,2.3,0.843728759,0.89,2.22,4.01,64.46,0.188,23.83,7.38,14.15,0.039249549,1.37,-0.026274679,-0.04,1.53,-7.75,56.22,0.685,17.05,2.91,-1.26,-0.024326672,1.21,-0.0898509,-0.2,0.92,2.48,57.52,0.362,18.64,1.69,1.95,-0.405156538,-0.29,-0.470680765,-1.7,0.62,-13.4,50.77,-0.007,14.42,0.08,0.44,-0.833333333,1.35,-0.898857561,-0.06,1.67,-19.72,56.19,-0.014,16.19,1.95,4.03
5/11/2020,0.013396763,0.7113921,1.58,1.469048554,2.1,0.757656453,0.52,1.95,16.34,73.05,0.63,23.25,8.23,11.83,1.543460601,2.5,0.832068501,0.92,2.04,-9.03,66.84,0.186,19.17,7.76,16.76,3.231414642,5.05,2.520022541,3.47,4.51,39.92,64.75,0.089,25.4,9.63,23.57,0.378850867,1.15,-0.332541233,-0.43,1.68,-0.7,69.25,0.508,18.34,7.19,9.44,0.324780025,-0.22,-0.386612076,-1.8,1.92,-10.62,62.58,-0.471,19,2.79,13.98,0.314905528,0.51,-0.396486572,-1.07,1.27,-5.49,58.73,-0.754,28.46,1.27,14.59,0.051828119,0.52,-0.659563981,-1.06,1.11,-17.37,75.54,2.532,25.21,11.53,17.16,0.001675912,0.85,-0.709716188,-0.73,1.22,38.39,54.45,-0.14,10.34,0.66,4.81,1.994247363,2.39,1.282855263,0.81,2.74,-16.72,52.96,-0.576,16.18,-1.71,8.09,-0.162179695,0.59,-0.873571795,-0.99,0.89,9.16,65.87,0.609,24.32,5.09,11.62,1.994401679,3,1.283009579,1.42,3.34,-2.65,68.44,0.259,24.32,9.47,17.58,1.690227412,3.86,0.978835312,2.28,2.69,17.5,63.22,0.818,17.18,6.51,3.03,0.46377409,1.65,-0.24761801,0.07,1.06,2.45,62.04,0.517,18.79,3.11,3.91,0,-0.04,-0.7113921,-1.62,0.54,66.87,50.22,-0.006,13.96,0.02,0.38,1.039676708,2.72,0.328284608,1.14,2.01,-7.93,61.4,0.319,16.41,4.31,7.21
